!!!!SEGMENT: pl-kk--kk-i-84--002_bellinzani-paolo-benedetto--missa-in-dmol-et-in-terra.krn
!!!cenid: 17xx:2309
!!!COM: Bellinzani, Paolo Benedetto
!!!COM-rismid: pe30000281
!!!CDT: 1682-1757/02/26
!!!CNT: Italian
!!!OPR: Missa in Dmol
!!!OTL: Et in terra
!!!OMV: 002
!!!PDT:
!!!AGN: Sacred; Mass
!!!SMS-siglum: PL-Kk
!!!SMS-shelfmark: Kk.I.84
!!!SMS-shelfwork: 001-002 M
!!!SMS-variant:
!!!SMS-altvar:
!!!NIFC-rismid: 1001154030
!!!URL-scan: http://repozytorium.nifc.pl/skany/pl-kk-nut--i-84
!!!ONB-nifc: UWAGA: części Mszy: 1. Kyrie, 2. Et in terra, 3. Sanctus, 4. Agnus Dei.
!!!key:
**kern	**fba	**text	**kern	**text	**kern	**text	**text	**kern	**text	**kern	**text
*part5	*	*part5	*part4	*part4	*part3	*part3	*part3	*part2	*part2	*part1	*part1
*staff5	*	*staff5	*staff4	*staff4	*staff3	*staff3	*staff3	*staff2	*staff2	*staff1	*staff1
*Iempty	*	*	*Iempty	*	*Itenor	*	*	*Ialto	*	*Ivox	*
*I"Baſso Ripieno	*	*	*I"Baſso.	*	*I"Tenore	*	*	*I"Alto.	*	*I"Canto.	*
*I'B rip	*	*	*I'B	*	*I'T	*	*	*I'A	*	*I'S	*
*clefC1	*	*	*clefF4	*	*clefC4	*	*	*clefC3	*	*clefC1	*
*k[]	*	*	*k[]	*	*k[]	*	*	*k[]	*	*k[]	*
*d:	*	*	*d:	*	*d:	*	*	*d:	*	*d:	*
*M2/1	*	*	*M2/1	*	*M2/1	*	*	*M2/1	*	*M2/1	*
*met(C|)	*	*	*met(C|)	*	*met(C|)	*	*	*met(C|)	*	*met(C|)	*
=1-	=1-	=1-	=1-	=1-	=1-	=1-	=1-	=1-	=1-	=1-	=1-
*2\right	*	*	*	*	*	*	*	*	*	*2\right	*
!	!	!	!	!	!	!	!	!LO:TX:t=P:problem:kreska pseudotaktowa	!	!	!
2dd\	.	.	1r	.	0r	.	.	00r	.	2dd\	Et
2d/	.	.	.	.	.	.	.	.	.	2d/	in
*clefF4	*	*	*2\right	*	*	*	*	*	*	*	*
2A\	.	Et	2A\	Et	.	.	.	.	.	2e/	ter-
!LO:TX:t=P:problem:kreska pseudotaktowa	!	!	!LO:TX:t=P:problem:kreska pseudotaktowa	!	!	!	!	!	!	!LO:TX:t=P:problem:kreska pseudotaktowa	!
2AA/	.	in	2AA/	in	.	.	.	.	.	[<2a\	-ra
=2-	=2-	=2-	=2-	=2-	=2-	=2-	=2-	=2-	=2-	=2-	=2-
!	!	!	!	!	!LO:TX:t=P:problem:kreska pseudotaktowa	!	!	!	!	!	!
2BB/	.	ter-	2BB/	ter-	1r	.	.	.	.	2a\]	.
!	!	!	!LO:TX:t=P:problem:kreska pseudotaktowa	!	!	!	!	!	!	!	!
2C#X/	.	-ra	2C#X/	-ra	.	.	.	.	.	2g,<\	.
*	*	*	*	*	*2\right	*	*	*	*	*	*
!LO:TX:t=P:problem:kreska pseudotaktowa	!	!	!	!	!	!	!	!	!	!	!
!LO:TX:t=P:problem:nie da się podłożyć tekstu zgodnie ze źródłem w taktch 2-5	!	!	!	!	!	!	!	!	!	!	!
1D\	.	pax	2D\	pax	2d\	Et	.	.	.	4f,</	pax
.	.	.	.	.	.	.	.	.	.	4a/	ho-
!	!	!	!	!	!LO:TX:t=P:problem:kreska pseudotaktowa	!	!	!	!	!LO:TX:t=P:problem:kreska pseudotaktowa	!
.	.	.	2D\	ho-	2D/	in	.	.	.	[<2dd\	-mi-
=3-	=3-	=3-	=3-	=3-	=3-	=3-	=3-	=3-	=3-	=3-	=3-
*	*	*	*	*	*	*	*	*2\right	*	*	*
2AA,</	.	h(omi)-	4AA/	-mi-	2E/	ter-	.	2a\	Et	4dd\]	.
.	.	.	4AA/	-ni-	.	.	.	.	.	4dd\	-ni-
!	!	!	!LO:TX:t=P:problem:kreska pseudotaktowa	!	!	!	!	!	!	!LO:TX:t=P:problem:kreska pseudotaktowa	!
1A\	.	-ni-	2AA/	-b(us)	1A\	.	.	2A/	in	2cc#X\	-b(us)
.	.	.	1r	.	.	.	.	2Bn/	ter-	4dd\	bo-
.	.	.	.	.	.	.	.	.	.	4dd\	-nae
!LO:TX:t=P:problem:kreska pseudotaktowa	!	!	!	!	!LO:TX:t=P:problem:kreska pseudotaktowa	!	!	!LO:TX:t=P:problem:kreska pseudotaktowa	!	!	!
2G\	.	-b(us)	.	.	2G,</	-ra	.	2c#X\	-ra	4ee\	Vo-
.	.	.	.	.	.	.	.	.	.	4ee\	-lun-
=4-	=4-	=4-	=4-	=4-	=4-	=4-	=4-	=4-	=4-	=4-	=4-
2F\	.	bo-	2r	.	2F,</	pax	.	2d,<\	pax	(2a\	-ta-
*	*	*	*	*	*	*ij	*	*	*	*	*
2D\	.	-nae	4D/	bo-	4A,<\	pax	.	2f\	ho-	2dd\)	.
*	*	*	*	*	*	*Xij	*	*	*	*	*
!	!	!	!LO:TX:t=P:problem:kreska pseudotaktowa	!	!	!	!	!	!	!	!
.	.	.	4D/	-nae	4B\	ho-	.	.	.	.	.
!LO:TX:t=P:problem:kreska pseudotaktowa	!	!	!	!	!	!	!	!	!	!	!
*	*	*	*	*	*	*	*	*	*	*lig	*
1Cny/	.	vo-	2Cny/	vo-	2c\	-mi-	.	4e\	-mi-	1g\	.
.	.	.	.	.	.	.	.	4e\	-ni-	.	.
!	!	!	!	!	!	!	!	!LO:TX:t=P:problem:kreska pseudotaktowa	!	!	!
.	.	.	2C/	-lun-	4c\	-ni-	.	2e\	-b(us)	.	.
!	!	!	!	!	!LO:TX:t=P:problem:kreska pseudotaktowa	!	!	!	!	!	!
.	.	.	.	.	4c\	-b(us)	.	.	.	.	.
=5-	=5-	=5-	=5-	=5-	=5-	=5-	=5-	=5-	=5-	=5-	=5-
1F\	.	-lun-	1F\	-ta-	4c\	bo-	.	4f\	bo-	1a\	.
.	.	.	.	.	4c\	-nae	.	4f\	-nae	.	.
.	.	.	.	.	4c\	vo-	.	4f\	vo-	.	.
.	.	.	.	.	4c\	-lun-	.	4f\	-lun-	.	.
!	!	!	!	!	!LO:TX:t=P:problem:kreska pseudotaktowa	!	!	!	!	!	!
1C/	.	-ta-	1C/	-tis	1c\	-ta-	.	(2f\	-ta-	1g\	.
!	!	!	!	!	!	!	!	!LO:TX:t=P:problem:kreska pseudotaktowa	!	!	!
.	.	.	.	.	.	.	.	2e\)	.	.	.
*	*	*	*	*	*	*	*	*	*	*Xlig	*
=6-	=6-	=6-	=6-	=6-	=6-	=6-	=6-	=6-	=6-	=6-	=6-
2F\	.	-tis.	2F\	.	2c\	-tis	.	4f,<\	-tis	2a,<\	-tis
.	.	.	.	.	.	.	.	4cny\	Lau-	.	.
*clefC4	*	*	*	*	*	*	*	*	*	*	*
!	!	!	!LO:TX:t=P:problem:kreska pseudotaktowa	!	!LO:TX:t=P:problem:kreska pseudotaktowa	!	!	!LO:N:vis=1.	!	!LO:TX:t=P:problem:kreska pseudotaktowa	!
1f\	.	.	2r	.	2r	.	.	1f\	-da-	2a\	Lau-
!	!	!	!	!	!LO:TX:t=P:problem:kreska pseudotaktowa	!	!	!	!	!	!
.	.	.	1r	.	1r	.	.	.	.	2b-X\	-da-
!LO:TX:t=P:problem:kreska pseudotaktowa	!	!	!	!	!	!	!	!LO:TX:t=P:problem:kreska pseudotaktowa	!	!	!
2e\	.	.	.	.	.	.	.	2e\	-m(us)	2ccny\	-m(us)
=7-	=7-	=7-	=7-	=7-	=7-	=7-	=7-	=7-	=7-	=7-	=7-
2f\	.	.	2r	.	4F/	be-	.	2f\	Te	2a,<\	Te
.	.	.	.	.	4F/	-ne-	.	.	.	.	.
*clefF4	*	*	*	*	*	*	*	*	*	*	*
2E\	.	be-	4E\	be-	1c\	-di-	.	4g\	be-	4g\	be-
!	!	!	!LO:TX:t=P:problem:kreska pseudotaktowa	!	!	!	!	!	!	!LO:TX:t=P:problem:kreska pseudotaktowa	!
.	.	.	4E\	-ne-	.	.	.	4g\	-ne-	4cc\	-ne-
2F\	.	-ne-	2F\	-di-	.	.	.	2f\	-di-	2a\	-di-
!LO:TX:t=P:problem:kreska pseudotaktowa	!	!	!	!	!	!	!	!	!	!	!
2G\	.	-di-	4G\	-ci-	4B\	-ci-	.	4d\	-ci-	4g/	-ci-
!	!	!	!LO:TX:t=P:problem:kreska pseudotaktowa	!	!LO:TX:t=P:problem:kreska pseudotaktowa	!	!	!LO:TX:t=P:problem:kreska pseudotaktowa	!	!LO:TX:t=P:problem:kreska pseudotaktowa	!
.	.	.	4G\	-m(us)	4B\	-m(us)	.	4d\	-m(us)	4g/	-m(us)
!	!	!	!	!	!	!	!	!	!	!LO:LB:g=original	!
=8-	=8-	=8-	=8-	=8-	=8-	=8-	=8-	=8-	=8-	=8-	=8-
2E,<\	.	-ci-	2E,<\	Te	2c,<\	Te	.	2e,<\	Te	2g,<\	Te
2C/	.	-m(us)	4C/	a-	4e\	a-	.	4g\	a-	[2cc\	a-
.	.	.	4C/	-do-	4e\	-do-	.	4g\	-do-	.	.
!LO:TX:t=P:problem:zbyt mało nut w stosunku do sylab tekstu	!	!	!	!	!	!	!	!	!	!	!
1G\	.	Te ado-	2G\	-ra-	2d\	-ra-	.	2g\	-ra-	4cc\]	.
.	.	.	.	.	.	.	.	.	.	4cc\	-do-
!	!	!	!	!	!LO:TX:t=P:problem:kreska pseudotaktowa	!	!	!	!	!	!
!	!	!	!LO:TX:t=P:problem:kreska pseudotaktowa	!	!LO:SIC:v:t=custos d	!	!	!LO:TX:t=P:problem:kreska pseudotaktowa	!	!	!
.	.	.	2G\	-m(us)	2d\	-m(us)	.	2g\	-m(us)	4bn\	-ra-
!	!	!	!	!	!	!	!	!	!	!LO:TX:t=P:problem:kreska pseudotaktowa	!
.	.	.	.	.	.	.	.	.	.	4b\	-m(us)
!	!	!	!LO:LB:g=original	!	!LO:LB:g=original	!	!	!LO:LB:g=original	!	!	!
=9-	=9-	=9-	=9-	=9-	=9-	=9-	=9-	=9-	=9-	=9-	=9-
1D\	.	-ra-	4D,</	Te	4d\	Te	.	4g\	Te	4a,<\	Te
.	.	.	4D/	glo-	4d\	glo-	.	4fn\	glo-	4a\	glo-
.	.	.	4D/	-ri-	4d\	-ri-	.	4f\	-ri-	4a\	-ri-
!	!	!	!	!	!LO:TX:t=P:problem:kreska pseudotaktowa	!	!	!	!	!	!
.	.	.	4D/	-fi-	4d\	-fi-	.	4f\	-fi-	4a\	-fi-
1G\	.	-m(us)	2A\	-ca-	2d\	-ca-	.	2e\	-ca-	2a\	-ca-
.	.	.	2A\	-m(us)	2c\	-m(us)	.	2e\	-m(us)	2a\	-m(us)
=10-	=10-	=10-	=10-	=10-	=10-	=10-	=10-	=10-	=10-	=10-	=10-
0E\;	.	Te	0E\;	Te.	0B\;	Te.	.	0e\;	Te.	0g#X\;	Te.
!LO:LB:g=original	!	!	!	!	!	!	!	!	!	!	!
=11||	=11||	=11||	=11||	=11||	=11||	=11||	=11||	=11||	=11||	=11||	=11||
*M3/2	*	*	*M3/2	*	*M3/2	*	*	*M3/2	*	*M3/2	*
2.c\	.	Gra-	2.c\	GRa-	2.e\	Gra-	.	2.g\	Gra-	2.cc\	Gra-
4G\	.	-(ti)-	4G\	-ti-	4e\	-ti-	.	4g\	-ti-	4cc\	-ti-
!LO:TX:t=P:problem:kreska pseudotaktowa	!	!	!LO:TX:t=P:problem:kreska pseudotaktowa	!	!LO:TX:t=P:problem:kreska pseudotaktowa	!	!	!LO:TX:t=P:problem:kreska pseudotaktowa	!	!LO:TX:t=P:problem:kreska pseudotaktowa	!
2E\	.	-as	2E\	-as	2e\	-as	.	2g\	-as	2cc\	-as
=12-	=12-	=12-	=12-	=12-	=12-	=12-	=12-	=12-	=12-	=12-	=12-
2.C/	.	a-	2.C/	a-	2.e\	a-	.	2.g\	a-	2.cc\	a-
4D\	.	-gi-	4D\	-gi-	4d\	-gi-	.	4f\	-gi-	4b\	-gi-
(4E\	.	-m(us)	(4E\	-m(us)	(4c\	-m(us)	.	(4e\	-mus	(4cc\	-m(us)
!	!	!	!	!	!LO:TX:t=P:problem:kreska pseudotaktowa	!	!	!LO:TX:t=P:problem:kreska pseudotaktowa	!	!LO:TX:t=P:problem:kreska pseudotaktowa	!
4F\)	.	.	4F\)	.	4f\)	.	.	4a\)	.	4dd\)	.
=13-	=13-	=13-	=13-	=13-	=13-	=13-	=13-	=13-	=13-	=13-	=13-
2G\	.	Ti-	1G\	Ti-	1d\	Ti-	.	1g\	Ti-	1b\	Ti-
2D,<\	.	-bi	.	.	.	.	.	.	.	.	.
*	*	*ij	*	*	*	*	*	*	*	*	*
!	!	!	!LO:TX:t=P:problem:kreska pseudotaktowa	!	!LO:TX:t=P:problem:kreska pseudotaktowa	!	!	!LO:TX:t=P:problem:kreska pseudotaktowa	!	!LO:TX:t=P:problem:kreska pseudotaktowa	!
2BB/	.	ti-	2G\	-bi	2d\	-bi	.	2g\	-bi	2b\	-bi,
!!linebreak:original
=14-	=14-	=14-	=14-	=14-	=14-	=14-	=14-	=14-	=14-	=14-	=14-
!LO:TX:t=P:problem:kreska pseudotaktowa	!	!	!	!	!	!	!	!LO:N:vis=00	!	!	!
!	!	!	!	!	!	!	!	!LO:TX:b:t=Cito	!	!	!
!	!	!	!	!	!	!	!	!LO:SIC:v:t=custos g	!	!	!
1.GG/	.	-bi	2r	.	2r	.	.	00.r	.	2r	.
*	*	*Xij	*	*	*	*	*	*	*	*	*
.	.	.	2G\	pro-	2d\	pro-	.	.	.	2b\	pro-
!	!	!	!LO:TX:t=P:problem:kreska pseudotaktowa	!	!LO:TX:t=P:problem:kreska pseudotaktowa	!	!	!	!	!LO:TX:t=P:problem:kreska pseudotaktowa	!
.	.	.	2G\	-pter	2d\	-pter	.	.	.	2b\	-pter
=15-	=15-	=15-	=15-	=15-	=15-	=15-	=15-	=15-	=15-	=15-	=15-
!LO:TX:t=P:problem:kreska pseudotaktowa	!	!	!	!	!	!	!	!	!	!	!
1.GG/	.	p(ro)-	[<1.G\T<	ma-	1e\	ma-	.	.	.	1cc\	ma-
!	!	!	!	!	!LO:TX:t=P:problem:kreska pseudotaktowa	!	!	!	!	!LO:TX:t=P:problem:kreska pseudotaktowa	!
.	.	.	.	.	2e\	-gnam	.	.	.	2cc\	-gna(m)
=16-	=16-	=16-	=16-	=16-	=16-	=16-	=16-	=16-	=16-	=16-	=16-
!LO:TX:t=P:problem:kreska pseudotaktowa	!	!	!	!	!	!	!	!	!	!	!
1.GG/	.	-pter	1G\]	.	2.d\	glo-	.	.	.	2.b\	glo-
.	.	.	.	.	4d\	-ri-	.	.	.	4b\	-ri-
!	!	!	!LO:TX:t=P:problem:kreska pseudotaktowa	!	!LO:TX:t=P:problem:kreska pseudotaktowa	!	!	!	!	!LO:TX:t=P:problem:kreska pseudotaktowa	!
.	.	.	2G\	.	2d\	-a(m)	.	.	.	2b\	-am
=17-	=17-	=17-	=17-	=17-	=17-	=17-	=17-	=17-	=17-	=17-	=17-
*	*	*	*	*	*	*ij	*	*	*	*	*ij
1.G\	.	ma-	1G\	.	2.e\	glo-	.	.	.	2.cc\	glo-
.	.	.	.	.	4e\	-ri-	.	.	.	4cc\	-ri-
!	!	!	!LO:TX:t=P:problem:kreska pseudotaktowa	!	!LO:TX:t=P:problem:kreska pseudotaktowa	!	!	!	!	!LO:TX:t=P:problem:kreska pseudotaktowa	!
.	.	.	2G\	-gnam	2e\	-am	.	.	.	2cc\	-am
*	*	*	*	*	*	*Xij	*	*	*	*	*Xij
!	!	!	!	!	!	!	!	!LO:PB:g=original	!	!LO:LB:g=original	!
=18-	=18-	=18-	=18-	=18-	=18-	=18-	=18-	=18-	=18-	=18-	=18-
!LO:TX:t=P:problem:kreska pseudotaktowa	!	!	!	!	!	!	!	!	!	!	!
1.GG/	.	-gnam	2.G\	glo-	1d\	Tu-	.	2r	.	1b\	tu-
.	.	.	.	.	.	.	.	2G/	pro-	.	.
.	.	.	4G\	-ri-	.	.	.	.	.	.	.
!	!	!	!LO:TX:t=P:problem:kreska pseudotaktowa	!	!LO:TX:t=P:problem:kreska pseudotaktowa	!	!	!LO:TX:t=P:problem:kreska pseudotaktowa	!	!LO:TX:t=P:problem:kreska pseudotaktowa	!
.	.	.	2G\	-am	2d\	-am	.	2G/	-pter	2b\	-am
!	!	!	!	!	!LO:PB:g=original	!	!	!	!	!	!
=19-	=19-	=19-	=19-	=19-	=19-	=19-	=19-	=19-	=19-	=19-	=19-
*^	*	*	*	*	*	*	*	*	*	*	*
!	!	!	!	!	!	!	!	!	!LO:TX:t=P:problem:kreska pseudotaktowa	!	!	!
2rF	2r	.	.	2r	.	2r	.	.	[<1.c\	ma-	1.r	.
2G/	2C\	.	p(ro)-	2C/	pro-	2e\	pro-	.	.	.	.	.
!LO:TX:t=P:problem:kreska pseudotaktowa	!	!	!	!LO:TX:t=P:problem:kreska pseudotaktowa	!	!LO:TX:t=P:problem:kreska pseudotaktowa	!	!	!	!	!	!
2G/	2C\	.	-pter	2C/	-pter	2e\	-pter	.	.	.	.	.
*v	*v	*	*	*	*	*	*	*	*	*	*	*
=20-	=20-	=20-	=20-	=20-	=20-	=20-	=20-	=20-	=20-	=20-	=20-
!	!	!	!LO:TX:t=P:problem:kreska pseudotaktowa	!	!LO:TX:t=P:problem:kreska pseudotaktowa	!	!	!	!	!	!
[<1.F\	.	ma-	[<1.F\	ma-	[<1.A\	ma-	.	2c/]	.	2r	.
.	.	.	.	.	.	.	.	2B/	.	2c/	pro-
!	!	!	!	!	!	!	!	!	!	!LO:TX:t=P:problem:kreska pseudotaktowa	!
.	.	.	.	.	.	.	.	2A/	-gnam	2c/	-pter
!	!	!	!LO:LB:g=original	!	!	!	!	!	!	!	!
=21-	=21-	=21-	=21-	=21-	=21-	=21-	=21-	=21-	=21-	=21-	=21-
!	!	!	!	!	!	!	!	!LO:TX:t=P:problem:kreska pseudotaktowa	!	!LO:TX:t=P:problem:kreska pseudotaktowa	!
2F\]	6	.	2F\]	.	2A/]	.	.	[<1.d\	glo-	1.f/	ma-
2E\	.	.	2E\	.	2G/	.	.	.	.	.	.
!LO:TX:t=P:problem:kreska pseudotaktowa	!	!	!LO:TX:t=P:problem:kreska pseudotaktowa	!	!	!	!	!	!	!	!
2D\	.	-gnam	2D\	-gnam	2F/	-gnam	.	.	.	.	.
=22-	=22-	=22-	=22-	=22-	=22-	=22-	=22-	=22-	=22-	=22-	=22-
!LO:TX:t=P:problem:kreska pseudotaktowa	!	!	!	!	!LO:TX:t=P:problem:kreska pseudotaktowa	!	!	!	!	!LO:TX:t=P:problem:kreska pseudotaktowa	!
[<1.G\	.	glo-	[1.G\	glo-	[<1.Bn\	glo-	.	2d\]	.	1.d/	-gnam
.	.	.	.	.	.	.	.	2c\	.	.	.
!	!	!	!	!	!	!	!	!LO:TX:t=P:problem:kreska pseudotaktowa	!	!	!
.	.	.	.	.	.	.	.	2B/	.	.	.
=23-	=23-	=23-	=23-	=23-	=23-	=23-	=23-	=23-	=23-	=23-	=23-
!	!	!	!	!	!	!	!	!LO:TX:t=P:problem:kreska pseudotaktowa	!	!	!
2G\]	.	.	2G\]	.	2B\]	.	.	[1.e\	.	(1.g\	glo-
2F\	.	.	2F\	.	2A\	.	.	.	.	.	.
!	!	!	!LO:TX:t=P:problem:kreska pseudotaktowa	!	!LO:TX:t=P:problem:kreska pseudotaktowa	!	!	!	!	!	!
2E\	.	.	2E\	.	2G/	.	.	.	.	.	.
=24-	=24-	=24-	=24-	=24-	=24-	=24-	=24-	=24-	=24-	=24-	=24-
!LO:TX:t=P:problem:kreska pseudotaktowa	!	!	!	!	!	!	!	!	!	!LO:TX:t=P:problem:kreska pseudotaktowa	!
[<1.A\	.	.	[<1.A\	.	[<1.c\	.	.	2e\]	.	1.e/)	.
.	.	.	.	.	.	.	.	2d\	.	.	.
!	!	!	!	!	!	!	!	!LO:TX:t=P:problem:kreska pseudotaktowa	!	!	!
.	.	.	.	.	.	.	.	2c\	.	.	.
=25-	=25-	=25-	=25-	=25-	=25-	=25-	=25-	=25-	=25-	=25-	=25-
!	!	!	!	!	!	!	!	!LO:TX:t=P:problem:kreska pseudotaktowa	!	!	!
2A\]	.	.	2A\]	.	2c\]	.	.	[1.f\	.	1a\	.
2G\	.	.	2G\	.	2B\	.	.	.	.	.	.
!LO:TX:t=P:problem:kreska pseudotaktowa	!	!	!LO:TX:t=P:problem:kreska pseudotaktowa	!	!LO:TX:t=P:problem:kreska pseudotaktowa	!	!	!	!	!	!
2F\	.	.	2F\	.	2A\	.	.	.	.	2a\	-ri-
=26-	=26-	=26-	=26-	=26-	=26-	=26-	=26-	=26-	=26-	=26-	=26-
2G\	.	.	2G\	.	2B\	.	.	2f\]	.	2d/	-am.
2A\	.	-ri-	2A\	-ri-	2c\|	-ri-	.	2e\|	-ri-	2r	.
!LO:TX:t=P:problem:kreska pseudotaktowa	!	!	!LO:TX:t=P:problem:kreska pseudotaktowa	!	!LO:TX:t=P:problem:kreska pseudotaktowa	!	!	!LO:TX:t=P:problem:kreska pseudotaktowa	!	!LO:TX:t=P:problem:kreska pseudotaktowa	!
2B\	.	.	2B\	-am	2d,<\|	-am	.	2d\|	-am	2r	.
!LO:LB:g=original	!	!	!	!	!	!	!	!	!	!	!
=27-	=27-	=27-	=27-	=27-	=27-	=27-	=27-	=27-	=27-	=27-	=27-
!	!	!	!	!	!	!	!	!	!	!LO:TX:t=P:problem:kreska pseudotaktowa	!
2c\	.	-am	2c\	Tu-	1c\	Tu-	.	2e\	Tu-	1.r	.
(2F\	.	tu-	2F\	.	.	.	.	1d\	.	.	.
!LO:TX:t=P:problem:kreska pseudotaktowa	!	!	!	!	!	!	!	!	!	!	!
2G\)	.	.	2G\	.	2B\	.	.	.	.	.	.
=28-	=28-	=28-	=28-	=28-	=28-	=28-	=28-	=28-	=28-	=28-	=28-
!	!	!	!LO:TX:t=P:problem:kreska pseudotaktowa	!	!LO:TX:t=P:problem:kreska pseudotaktowa	!	!	!	!	!	!
2C/	.	-am	1.C/	-am.	1.c\	-am.	.	1e\	-am.	2.cc\	Do-
*clefC1	*	*	*	*	*	*	*	*	*	*	*
2cc\	.	.	.	.	.	.	.	.	.	.	.
.	.	.	.	.	.	.	.	.	.	4cc\	-mi-
!	!	!	!	!	!	!	!	!LO:TX:t=P:problem:kreska pseudotaktowa	!	!LO:TX:t=P:problem:kreska pseudotaktowa	!
2cc\	.	.	.	.	.	.	.	2r	.	2cc\	-ne
*clefC3	*	*	*	*	*	*	*	*	*	*	*
=29-	=29-	=29-	=29-	=29-	=29-	=29-	=29-	=29-	=29-	=29-	=29-
!	!	!	!LO:N:vis=00	!	!LO:N:vis=00	!	!	!	!	!	!
!	!	!	!LO:TX:b:t=Cito	!	!	!	!	!	!	!	!
2.g\	.	.	00.r	.	00.r	.	.	2.g\	Do-	(4bn\	De-
.	.	.	.	.	.	.	.	.	.	4a\)	.
.	.	.	.	.	.	.	.	.	.	(4g\	-us
4g\	.	.	.	.	.	.	.	4g\	-mi-	4a,<\)	.
!LO:TX:t=P:problem:kreska pseudotaktowa	!	!	!	!	!	!	!	!LO:TX:t=P:problem:kreska pseudotaktowa	!	!	!
2g\	.	.	.	.	.	.	.	2g\	-ne	4b\	Rex
!	!	!	!	!	!	!	!	!	!	!LO:TX:t=P:problem:kreska pseudotaktowa	!
.	.	.	.	.	.	.	.	.	.	4cc#X\	Cae-
=30-	=30-	=30-	=30-	=30-	=30-	=30-	=30-	=30-	=30-	=30-	=30-
4f\	.	.	.	.	.	.	.	(4fn\	De-	2dd\	-le-
4e\	.	.	.	.	.	.	.	4e\)	.	.	.
4d\	.	.	.	.	.	.	.	(4d\	-(us)	2dd\	-stis
4e\	.	.	.	.	.	.	.	4e\)	.	.	.
4f\	.	.	.	.	.	.	.	4f\|	Rex	4dd\	De-
!	!	!	!	!	!	!	!	!LO:TX:t=P:problem:kreska pseudotaktowa	!	!	!
!LO:TX:t=P:problem:kreska pseudotaktowa	!	!	!	!	!	!	!	!	!	!LO:TX:t=P:problem:kreska pseudotaktowa	!
4g\	.	.	.	.	.	.	.	4g\|	cae-	4dd\	-(us)
=31-	=31-	=31-	=31-	=31-	=31-	=31-	=31-	=31-	=31-	=31-	=31-
2a\	.	.	.	.	.	.	.	2a\	-leſ-	2cc#X\	Pa-
2a\	.	.	.	.	.	.	.	2a,<\	-tis	2cc#,<\	-ter
!	!	!	!	!	!	!	!	!	!	!LO:TX:t=P:problem:kreska pseudotaktowa	!
!	!	!	!	!	!	!	!	!	!	!LO:SIC:v:t=custos c	!
4a\	.	.	.	.	.	.	.	4a\	De-	2cc#\	O-
!LO:TX:t=P:problem:kreska pseudotaktowa	!	!	!	!	!	!	!	!LO:TX:t=P:problem:kreska pseudotaktowa	!	!	!
4g\	.	.	.	.	.	.	.	4g\	-(us)	.	.
!	!	!	!	!	!	!	!	!LO:LB:g=original	!	!LO:PB:g=original	!
=32-	=32-	=32-	=32-	=32-	=32-	=32-	=32-	=32-	=32-	=32-	=32-
2f\	.	.	.	.	.	.	.	2fn\	Pa-	[1.dd\	-mni-
2g\	.	.	.	.	.	.	.	2g\	-ter	.	.
2f\	.	.	.	.	.	.	.	2f\	o-	.	.
*clefF4	*	*	*	*	*	*	*	*	*	*	*
!	!	!	!LO:PB:g=original	!	!	!	!	!	!	!	!
=33-	=33-	=33-	=33-	=33-	=33-	=33-	=33-	=33-	=33-	=33-	=33-
!	!	!	!	!	!LO:TX:t=P:problem:kreska pseudotaktowa	!	!	!	!	!	!
2.A\	.	D(o)-	2.A\	Do-	1.r	.	.	1e\	-mni-	1dd\]	.
4A\	.	-(mi)-	4A\	-mi-	.	.	.	.	.	.	.
!LO:TX:t=P:problem:kreska pseudotaktowa	!	!	!LO:TX:t=P:problem:kreska pseudotaktowa	!	!	!	!	!	!	!LO:TX:t=P:problem:kreska pseudotaktowa	!
2A\	.	-ne	2A\	-ne	.	.	.	2e\	-po-	2cc#X\	-po-
=34-	=34-	=34-	=34-	=34-	=34-	=34-	=34-	=34-	=34-	=34-	=34-
!	!	!	!	!	!	!	!	!	!	!LO:TX:t=P:problem:kreska pseudotaktowa	!
(4F\	.	Fi-	(4F\	Fi-	2.d\	Do-	.	1f\	-tens	1.dd\	-tens
4E\)	.	.	4E\)	.	.	.	.	.	.	.	.
(4D\	.	-li	(4D\	-li	.	.	.	.	.	.	.
4E\)	.	.	4E\)	.	4d\	-mi-	.	.	.	.	.
!	!	!	!	!	!LO:TX:t=P:problem:kreska pseudotaktowa	!	!	!LO:TX:t=P:problem:kreska pseudotaktowa	!	!	!
4F\|	.	u-	4F\	U-	2d\	-ne	.	2r	.	.	.
!LO:TX:t=P:problem:kreska pseudotaktowa	!	!	!	!	!	!	!	!	!	!	!
!	!	!	!LO:TX:t=P:problem:kreska pseudotaktowa	!	!	!	!	!	!	!	!
4G\|	.	-ni-	4G\	-ni-	.	.	.	.	.	.	.
=35-	=35-	=35-	=35-	=35-	=35-	=35-	=35-	=35-	=35-	=35-	=35-
!LO:TX:t=P:problem:kreska pseudotaktowa	!	!	!	!	!	!	!	!	!	!	!
1.A\	.	-ge-	2.A\	-ge-	(4c#X\	Fi-	.	1.e\	Je-	1.r	.
.	.	.	.	.	4B\)	.	.	.	.	.	.
.	.	.	.	.	(4A\	-li	.	.	.	.	.
.	.	.	4A\	-ni-	4B\)	.	.	.	.	.	.
!	!	!	!LO:TX:t=P:problem:kreska pseudotaktowa	!	!	!	!	!	!	!	!
.	.	.	2A\	-te	(4c#X\	U-	.	.	.	.	.
!	!	!	!	!	!LO:TX:t=P:problem:kreska pseudotaktowa	!	!	!	!	!	!
.	.	.	.	.	4A\)	-ni-	.	.	.	.	.
!	!	!	!	!	!LO:LB:g=original	!	!	!	!	!	!
=36-	=36-	=36-	=36-	=36-	=36-	=36-	=36-	=36-	=36-	=36-	=36-
!	!	!	!	!	!	!	!	!LO:TX:t=P:problem:kreska pseudotaktowa	!	!	!
4F\	.	-ni-	4F\	JE-	2.d\	-ge-	.	1.f\	-su	1.a\	Je-
(4E\	.	-te	4E\	.	.	.	.	.	.	.	.
4D\	.	Je-	(4D\	.	.	.	.	.	.	.	.
4E\)	.	.	4E\)	.	4d\	-ni-	.	.	.	.	.
!	!	!	!	!	!LO:TX:t=P:problem:kreska pseudotaktowa	!	!	!	!	!	!
4F\	.	.	4F\	.	2d\	-te	.	.	.	.	.
!LO:TX:t=P:problem:kreska pseudotaktowa	!	!	!LO:TX:t=P:problem:kreska pseudotaktowa	!	!	!	!	!	!	!	!
4D\	.	.	4D\	.	.	.	.	.	.	.	.
=37-	=37-	=37-	=37-	=37-	=37-	=37-	=37-	=37-	=37-	=37-	=37-
!LO:TX:t=P:problem:kreska pseudotaktowa	!	!	!	!	!	!	!	!	!	!LO:TX:t=P:problem:kreska pseudotaktowa	!
1.G\	.	-su	1G\	.	4B\	JE-	.	1.d\	JE-	1.b\	.
.	.	.	.	.	4A\	.	.	.	.	.	.
.	.	.	.	.	4G\	.	.	.	.	.	.
.	.	.	.	.	4A\	.	.	.	.	.	.
!	!	!	!LO:TX:t=P:problem:kreska pseudotaktowa	!	!	!	!	!	!	!	!
.	.	.	2G\	-SU	4B\	.	.	.	.	.	.
!	!	!	!	!	!LO:TX:t=P:problem:kreska pseudotaktowa	!	!	!	!	!	!
.	.	.	.	.	4G\	.	.	.	.	.	.
!LO:PB:g=original	!	!	!	!	!	!	!	!	!	!	!
=38-	=38-	=38-	=38-	=38-	=38-	=38-	=38-	=38-	=38-	=38-	=38-
!	!	!	!	!	!	!	!	!LO:TX:t=P:problem:kreska pseudotaktowa	!	!	!
4E\	.	JE-	4E\	JE-	[<1.cny\	.	.	1.e\	.	1.g\	.
4D\	.	.	4D\	.	.	.	.	.	.	.	.
4C/	.	.	4C/	.	.	.	.	.	.	.	.
4D/	.	.	4D/	.	.	.	.	.	.	.	.
4E/	.	.	4E/	.	.	.	.	.	.	.	.
!LO:TX:t=P:problem:kreska pseudotaktowa	!	!	!LO:TX:t=P:problem:kreska pseudotaktowa	!	!	!	!	!	!	!	!
4C/	.	.	4C/	.	.	.	.	.	.	.	.
=39-	=39-	=39-	=39-	=39-	=39-	=39-	=39-	=39-	=39-	=39-	=39-
!	!	!	!	!	!	!	!	!	!	!LO:TX:t=P:problem:kreska pseudotaktowa	!
4F\	.	.	4F\	.	1.c\]	.	.	[1.f\	.	1.a\	.
4E\	.	.	4E\	.	.	.	.	.	.	.	.
4F\	.	.	4F\	.	.	.	.	.	.	.	.
4G\	.	.	4G\	.	.	.	.	.	.	.	.
4A\	.	.	4A\	.	.	.	.	.	.	.	.
!LO:TX:t=P:problem:kreska pseudotaktowa	!	!	!LO:TX:t=P:problem:kreska pseudotaktowa	!	!	!	!	!	!	!	!
4F\	.	.	4F\	.	.	.	.	.	.	.	.
=40-	=40-	=40-	=40-	=40-	=40-	=40-	=40-	=40-	=40-	=40-	=40-
4B-X\	.	.	4B-X\	.	2.d\	.	.	1f\]	.	2.b-X\	.
4c\	.	.	4c\	.	.	.	.	.	.	.	.
4B-\	.	.	4B-\	.	.	.	.	.	.	.	.
4A\	.	.	4A\	.	4A\	.	.	.	.	4ccny\	.
4G\	.	.	4G\	.	4B-X\	.	.	4e\	.	4b-\	.
!LO:TX:t=P:problem:kreska pseudotaktowa	!	!	!LO:TX:t=P:problem:kreska pseudotaktowa	!	!LO:TX:t=P:problem:kreska pseudotaktowa	!	!	!	!	!LO:TX:t=P:problem:kreska pseudotaktowa	!
4F\	.	.	4F\	.	4c\	.	.	4f\	.	4a\	.
=41-	=41-	=41-	=41-	=41-	=41-	=41-	=41-	=41-	=41-	=41-	=41-
1c\	.	.	1c\	-SU	1c\	.	.	1e\	.	1g\	-su
!	!	!	!	!	!LO:TX:t=P:problem:kreska pseudotaktowa	!	!	!LO:TX:t=P:problem:kreska pseudotaktowa	!	!	!
2A\	.	-SU	2A\	.	2c\	-SU	.	2f\	-SU	2a\	.
=42-	=42-	=42-	=42-	=42-	=42-	=42-	=42-	=42-	=42-	=42-	=42-
2B-X\	.	Chri-	2B-X\	Chri-	(2d\	Chri-	.	1f\	Chri-	1.g\	X-
!LO:TX:t=P:problem:kreska pseudotaktowa	!	!	!	!	!	!	!	!	!	!	!
1c\	.	.	1c\	.	1c\)	.	.	.	.	.	.
.	.	.	.	.	.	.	.	2e\	.	.	.
=43-	=43-	=43-	=43-	=43-	=43-	=43-	=43-	=43-	=43-	=43-	=43-
!	!	!	!LO:TX:t=P:problem:kreska pseudotaktowa	!	!	!	!	!LO:TX:t=P:problem:kreska pseudotaktowa	!	!LO:TX:t=P:problem:kreska pseudotaktowa	!
2F,<\	.	-ste	1.F\	-ste	1c\	-ste	.	1.f\	-ste.	1.a\	-te.
2C/	.	.	.	.	.	.	.	.	.	.	.
!LO:TX:t=P:problem:kreska pseudotaktowa	!	!	!	!	!LO:TX:t=P:problem:kreska pseudotaktowa	!	!	!	!	!	!
2AA/	.	.	.	.	2r	.	.	.	.	.	.
!	!	!	!LO:LB:g=original	!	!	!	!	!	!	!	!
=44-	=44-	=44-	=44-	=44-	=44-	=44-	=44-	=44-	=44-	=44-	=44-
!	!	!	!LO:TX:t=P:problem:kreska pseudotaktowa	!	!	!	!	!LO:N:vis=00	!	!LO:N:vis=00	!
2FF,</	.	.	1.r	.	2.F/	Do-	.	00.r	.	00.r	.
2F\	.	D(o)-	.	.	.	.	.	.	.	.	.
.	.	.	.	.	4F/	-mi-	.	.	.	.	.
!LO:TX:t=P:problem:kreska pseudotaktowa	!	!	!	!	!LO:TX:t=P:problem:kreska pseudotaktowa	!	!	!	!	!	!
2F\	.	-(mi)-	.	.	2F/	-ne	.	.	.	.	.
=45-	=45-	=45-	=45-	=45-	=45-	=45-	=45-	=45-	=45-	=45-	=45-
2C/	.	-ne	2.C/	Do-	1G/	DE-	.	.	.	.	.
!LO:TX:i:t=T.	!	!	!	!	!	!	!	!	!	!	!
2C/	.	De-	.	.	.	.	.	.	.	.	.
.	.	.	4C/	-mi-	.	.	.	.	.	.	.
!LO:TX:t=P:problem:kreska pseudotaktowa	!	!	!LO:TX:t=P:problem:kreska pseudotaktowa	!	!	!	!	!	!	!	!
2C/	.	-us	2C/	-ne	2A\	-(us)	.	.	.	.	.
=46-	=46-	=46-	=46-	=46-	=46-	=46-	=46-	=46-	=46-	=46-	=46-
1D\	.	a-	1D\	De-	1B-X\	a-	.	.	.	.	.
!	!	!	!LO:TX:t=P:problem:kreska pseudotaktowa	!	!	!	!	!	!	!	!
2E\	.	-gn(us)	2E\	-us	2B-\	-gn(us)	.	.	.	.	.
=47-	=47-	=47-	=47-	=47-	=47-	=47-	=47-	=47-	=47-	=47-	=47-
1.F\	.	De-	1F\	a-	1A\	De-	.	.	.	.	.
!	!	!	!	!	!LO:TX:t=P:problem:kreska pseudotaktowa	!	!	!	!	!	!
.	.	.	2F\	-gn(us)	2A\	-i	.	.	.	.	.
=48-	=48-	=48-	=48-	=48-	=48-	=48-	=48-	=48-	=48-	=48-	=48-
!LO:TX:t=P:problem:kreska pseudotaktowa	!	!	!	!	!	!	!	!LO:N:vis=00	!	!LO:N:vis=00	!
1.E\	.	-i	1E\	De-	2G/	Fi-	.	00.r	.	00.r	.
.	.	.	.	.	2c\	-li-	.	.	.	.	.
!	!	!	!LO:TX:t=P:problem:kreska pseudotaktowa	!	!	!	!	!	!	!	!
.	.	.	2E\	-i	2c\	-us	.	.	.	.	.
=49-	=49-	=49-	=49-	=49-	=49-	=49-	=49-	=49-	=49-	=49-	=49-
2D\	.	Fi-	2D\	Fi-	2F/	Pa-	.	.	.	.	.
1G\	.	-li-	2G\	-li-	[<1B-X\	.	.	.	.	.	.
!	!	!	!LO:TX:t=P:problem:kreska pseudotaktowa	!	!	!	!	!	!	!	!
.	.	.	2G\	-us	.	.	.	.	.	.	.
!	!	!	!	!	!LO:LB:g=original	!	!	!	!	!	!
=50-	=50-	=50-	=50-	=50-	=50-	=50-	=50-	=50-	=50-	=50-	=50-
2C/	.	-(us)	2C/	Pa-	2B-\]	.	.	.	.	.	.
!LO:TX:t=P:problem:kreska pseudotaktowa	!	!	!	!	!LO:TX:t=P:problem:kreska pseudotaktowa	!	!	!	!	!	!
1F\	.	Pa-	1F\	.	[<1A\	.	.	.	.	.	.
!LO:LB:g=original	!	!	!	!	!	!	!	!	!	!	!
=51-	=51-	=51-	=51-	=51-	=51-	=51-	=51-	=51-	=51-	=51-	=51-
1.BB-X/	.	.	1.BB-X/	.	2A\]	.	.	.	.	.	.
.	.	.	.	.	4B-X\	.	.	.	.	.	.
.	.	.	.	.	4A\	.	.	.	.	.	.
.	.	.	.	.	4G/	.	.	.	.	.	.
!	!	!	!	!	!LO:TX:t=P:problem:kreska pseudotaktowa	!	!	!	!	!	!
.	.	.	.	.	4F/	.	.	.	.	.	.
=52-	=52-	=52-	=52-	=52-	=52-	=52-	=52-	=52-	=52-	=52-	=52-
!	!	!	!LO:TX:t=P:problem:kreska pseudotaktowa	!	!	!	!	!	!	!	!
1C/	.	-tris	1.C/	-tris	1.E/	.	.	1.r	.	4c/	Fi-
.	.	.	.	.	.	.	.	.	.	4d/	.
.	.	.	.	.	.	.	.	.	.	(4e/	-li-
.	.	.	.	.	.	.	.	.	.	4f/)	.
!LO:TX:t=P:problem:kreska pseudotaktowa	!	!	!	!	!	!	!	!	!	!	!
2r	.	.	.	.	.	.	.	.	.	(4g/	-us
.	.	.	.	.	.	.	.	.	.	4a/)	.
=53-	=53-	=53-	=53-	=53-	=53-	=53-	=53-	=53-	=53-	=53-	=53-
2C/	.	Fi-	2.C/	Fi-	1E/	-tris.	.	(4b-X\	Fi-	1.b-X\	Pa-
.	.	.	.	.	.	.	.	4a\)	.	.	.
2C/	.	-li-	.	.	.	.	.	(4g\	-li-	.	.
.	.	.	4C/	-li-	.	.	.	4f\)	.	.	.
!LO:TX:t=P:problem:kreska pseudotaktowa	!	!	!LO:TX:t=P:problem:kreska pseudotaktowa	!	!LO:TX:t=P:problem:kreska pseudotaktowa	!	!	!	!	!	!
2C/	.	-(us)	2C/	-us	2r	.	.	(4e\	-us	.	.
.	.	.	.	.	.	.	.	4d\)	.	.	.
=54-	=54-	=54-	=54-	=54-	=54-	=54-	=54-	=54-	=54-	=54-	=54-
!	!	!	!	!	!	!	!	!	!	!LO:TX:t=P:problem:kreska pseudotaktowa	!
4F\	.	Pa-	4F\	Pa-	2.f\	Fi-	.	1c\	Pa-	1.a\	.
4E\	.	.	4E\	.	.	.	.	.	.	.	.
4F\	.	.	4F\	.	.	.	.	.	.	.	.
4G\	.	.	4G\	.	4f\	-li-	.	.	.	.	.
!	!	!	!	!	!LO:TX:t=P:problem:kreska pseudotaktowa	!	!	!LO:TX:t=P:problem:kreska pseudotaktowa	!	!	!
4A\	.	.	4A\	.	2c\	-us	.	[<2f\	.	.	.
!LO:TX:t=P:problem:kreska pseudotaktowa	!	!	!LO:TX:t=P:problem:kreska pseudotaktowa	!	!	!	!	!	!	!	!
4F\	.	.	4F\	.	.	.	.	.	.	.	.
=55-	=55-	=55-	=55-	=55-	=55-	=55-	=55-	=55-	=55-	=55-	=55-
2B-X\	.	.	2B-X\	.	2d\	Pa-	.	1f\]	.	1.g\	.
2c\	.	.	2c\	.	1c\	.	.	.	.	.	.
2C/	.	.	2C/	.	.	.	.	2e\	.	.	.
=56-	=56-	=56-	=56-	=56-	=56-	=56-	=56-	=56-	=56-	=56-	=56-
0.F\;	.	-tris.	0.F\	-tris.	0.c\;	-tris.	.	0.f\	-tris.	1.a\	-tris.
=57-	=57-	=57-	=57-	=57-	=57-	=57-	=57-	=57-	=57-	=57-	=57-
.	.	.	.	.	.	.	.	.	.	1.ryy	.
!	!	!	!	!	!	!	!	!	!	!LO:LB:g=original	!
!	!	!	!	!	!	!	!	!LO:LB:g=original	!	!	!
*clefC1	*	*	*	*	*	*	*	*	*	*	*
!	!	!	!LO:LB:g=original	!	!	!	!	!	!	!	!
=58||	=58||	=58||	=58||	=58||	=58||	=58||	=58||	=58||	=58||	=58||	=58||
*M2/1	*	*	*M2/1	*	*M2/1	*	*	*M2/1	*	*M2/1	*
*met(C|)	*	*	*met(C|)	*	*met(C|)	*	*	*met(C|)	*	*met(C|)	*
2r	.	.	00r	.	00r	.	.	1r	.	2r	.
2a\	.	Qui	.	.	.	.	.	.	.	2a\	Qui
!	!	!	!	!	!	!	!	!	!	!LO:TX:t=P:problem:kreska pseudotaktowa	!
2b-X\	.	tol-	.	.	.	.	.	2r	.	1b-X\	tol-
*clefC3	*	*	*	*	*	*	*	*	*	*	*
!LO:TX:t=P:problem:kreska pseudotaktowa	!	!	!	!	!	!	!	!LO:TX:t=P:problem:kreska pseudotaktowa	!	!	!
2d\	.	-lis	.	.	.	.	.	2d\	Qui	.	.
=59-	=59-	=59-	=59-	=59-	=59-	=59-	=59-	=59-	=59-	=59-	=59-
1f\	.	p(e)c-	.	.	.	.	.	1f\	tol-	4a,<\	-lis
.	.	.	.	.	.	.	.	.	.	4a\	pec-
.	.	.	.	.	.	.	.	.	.	1dd\	-ca-
2e\	.	-(ca)-	.	.	.	.	.	4e,<\	-lis	.	.
.	.	.	.	.	.	.	.	4e\	pec-	.	.
!	!	!	!	!	!	!	!	!LO:TX:t=P:problem:kreska pseudotaktowa	!	!	!
1a\	.	-ta	.	.	.	.	.	[<2a\	-ca-	2cc\	-ta
=60-	=60-	=60-	=60-	=60-	=60-	=60-	=60-	=60-	=60-	=60-	=60-
!	!	!	!	!	!LO:TX:t=P:problem:kreska pseudotaktowa	!	!	!	!	!	!
.	.	.	0r	.	0r	.	.	2a\]	.	1b-X\	mun-
1g\	.	.	.	.	.	.	.	1g\	.	.	.
.	.	.	.	.	.	.	.	.	.	2a,<\	-di
!LO:TX:t=P:problem:kreska pseudotaktowa	!	!	!	!	!	!	!	!LO:TX:t=P:problem:kreska pseudotaktowa	!	!	!
2f\	.	.	.	.	.	.	.	2f\	-ta	1dd\	mun-
=61-	=61-	=61-	=61-	=61-	=61-	=61-	=61-	=61-	=61-	=61-	=61-
!	!	!	!LO:TX:t=P:problem:kreska pseudotaktowa	!	!	!	!	!	!	!	!
2e\	.	.	1r	.	2r	.	.	1e\	mun-	.	.
*clefC4	*	*	*	*	*	*	*	*	*	*	*
!LO:TX:t=P:problem:kreska pseudotaktowa	!	!	!	!	!	!	!	!	!	!	!
2A\	.	.	.	.	2A\	Qui	.	.	.	2cc#X\	.
!	!	!	!	!	!LO:TX:t=P:problem:kreska pseudotaktowa	!	!	!LO:TX:t=P:problem:kreska pseudotaktowa	!	!LO:TX:t=P:problem:kreska pseudotaktowa	!
2B-X\	.	.	2r	.	1B-X\	tol-	.	1d\,<	-di	1dd\,<	-di
*clefF4	*	*	*	*	*	*	*	*	*	*	*
!LO:TX:t=P:problem:kreska pseudotaktowa	!	!	!	!	!	!	!	!	!	!	!
2D\	.	Qui	2D\	Qui	.	.	.	.	.	.	.
=62-	=62-	=62-	=62-	=62-	=62-	=62-	=62-	=62-	=62-	=62-	=62-
!LO:TX:t=P:problem:kreska pseudotaktowa	!	!	!LO:TX:t=P:problem:kreska pseudotaktowa	!	!	!	!	!	!	!	!
1F\	.	tol-	1F\	tol-	4A,<\	-lis	.	2.a\	mi-	2.d/	mi-
.	.	.	.	.	4A\	pec-	.	.	.	.	.
.	.	.	.	.	1d\	-ca-	.	.	.	.	.
.	.	.	.	.	.	.	.	4a\	-ſe-	4d/	-ſe-
!LO:LB:g=original	!	!	!	!	!	!	!	!	!	!	!
2E\	.	-lis	4E,<\	-lis	.	.	.	2g\	-re-	2e/	-re-
.	.	.	4E\	pec-	.	.	.	.	.	.	.
!	!	!	!	!	!LO:TX:t=P:problem:kreska pseudotaktowa	!	!	!LO:TX:t=P:problem:kreska pseudotaktowa	!	!LO:TX:t=P:problem:kreska pseudotaktowa	!
1A\	.	pec-	1A\	-ca-	2c\	-ta	.	2e\	-re	2e/	-re
=63-	=63-	=63-	=63-	=63-	=63-	=63-	=63-	=63-	=63-	=63-	=63-
.	.	.	.	.	1B-X\	mun-	.	2d\	no-	2f/	no-
1G\	.	-ca-	1G\	.	.	.	.	4e\	.	2g\	.
!	!	!	!	!	!	!	!	!LO:TX:t=P:problem:kreska pseudotaktowa	!	!	!
.	.	.	.	.	.	.	.	4d\	.	.	.
!	!	!	!	!	!	!	!	!	!	!LO:TX:t=P:problem:kreska pseudotaktowa	!
.	.	.	.	.	2A\	-di	.	2c#X/	.	1a\	.
!LO:TX:t=P:problem:kreska pseudotaktowa	!	!	!LO:TX:t=P:problem:kreska pseudotaktowa	!	!	!	!	!LO:TX:t=P:problem:kreska pseudotaktowa	!	!	!
2F\	.	-ta	2F\	-ta	1d\	mun-	.	2d,</	-bis.	.	.
=64-	=64-	=64-	=64-	=64-	=64-	=64-	=64-	=64-	=64-	=64-	=64-
1E\	.	mun-	1E\	mun-	.	.	.	1.g\	mi-	1e/,<	-bis
!	!	!	!	!	!LO:TX:t=P:problem:kreska pseudotaktowa	!	!	!	!	!	!
.	.	.	.	.	2c#X\	.	.	.	.	.	.
!LO:TX:t=P:problem:kreska pseudotaktowa	!	!	!LO:TX:t=P:problem:kreska pseudotaktowa	!	!	!	!	!	!	!	!
1D\	.	-di	1D\,<	-di	2d,<\	-di	.	.	.	1.a\	mi-
!	!	!	!	!	!	!	!	!LO:TX:t=P:problem:kreska pseudotaktowa	!	!	!
.	.	.	.	.	1d\	mi-	.	2f#X\	-ſe-	.	.
=65-	=65-	=65-	=65-	=65-	=65-	=65-	=65-	=65-	=65-	=65-	=65-
1G\	.	mi-	1G\	mi-	.	.	.	1.b-X\	-re-	.	.
!	!	!	!	!	!LO:TX:t=P:problem:kreska pseudotaktowa	!	!	!	!	!	!
.	.	.	.	.	2e\	-ſe-	.	.	.	2g\	-se-
!	!	!	!	!	!LO:LB:g=original	!	!	!	!	!LO:TX:t=P:problem:kreska pseudotaktowa	!
1A\	.	-ſe-	1A\	-ſe-	1.f\	-re-	.	.	.	[<1ccny\	-re-
!	!	!	!	!	!	!	!	!LO:TX:t=P:problem:kreska pseudotaktowa	!	!	!
.	.	.	.	.	.	.	.	2a\	-re	.	.
=66-	=66-	=66-	=66-	=66-	=66-	=66-	=66-	=66-	=66-	=66-	=66-
1B-X\	.	-re-	1B-X\	-re-	.	.	.	2d,<\	.	2cc\]	.
.	.	.	.	.	2d\	-re	.	1g\	no-	1b-X\	.
2c\	.	-re	2c\	-re	2e\	no-	.	.	.	.	.
!	!	!	!LO:TX:t=P:problem:kreska pseudotaktowa	!	!	!	!	!	!	!LO:TX:t=P:problem:kreska pseudotaktowa	!
2F\	.	no-	2F\	.	(4f\	.	.	1fny\	.	2a\	-re
!	!	!	!	!	!LO:TX:t=P:problem:kreska pseudotaktowa	!	!	!	!	!	!
.	.	.	.	.	4cny\)	.	.	.	.	.	.
=67-	=67-	=67-	=67-	=67-	=67-	=67-	=67-	=67-	=67-	=67-	=67-
!LO:TX:t=P:problem:kreska pseudotaktowa	!	!	!	!	!	!	!	!	!	!	!
1C/	.	-bis	1C/	no-	2c\	.	.	.	.	1g\	no-
!	!	!	!	!	!	!	!	!LO:TX:t=P:problem:kreska pseudotaktowa	!	!	!
.	.	.	.	.	2c,<\	-bis	.	2e\	.	.	.
2F,<\	.	Qui	2F,<\	-bis	2c\	[[mi-	Qui	2f,<\	-bis.	2a,<\	-bis
!	!	!	!	!	!	!	!	!	!	!LO:TX:t=P:problem:kreska pseudotaktowa	!
!	!	!	!	!	!LO:TX:t=P:problem:kreska pseudotaktowa	!	!	!LO:TX:t=P:problem:kreska pseudotaktowa	!	!LO:SIC:v:t=custos b-	!
!	!	!	!	!	!	!	!	!LO:TX:t=P:problem:♯above	!	!	!
2D\	.	tol-	2D/	Qui	2d\	-se-	tol-	2f#X\	Qui	2a\	Qui
!	!	!	!	!	!	!	!	!	!	!LO:LB:g=original	!
=68-	=68-	=68-	=68-	=68-	=68-	=68-	=68-	=68-	=68-	=68-	=68-
!	!	!	!LO:TX:t=P:problem:kreska pseudotaktowa	!	!	!	!	!	!	!	!
1.G\	.	-lis	1G\	tol-	1d\	-re-	.	1g\	tol-	1b-X\	tol-
.	.	.	2G,<\	-lis	2G,</	-re	-lis	4e,<\	-lis	2b-\	-lis
.	.	.	.	.	.	.	.	4e\	pec-	.	.
!LO:TX:t=P:problem:kreska pseudotaktowa	!	!	!	!	!LO:TX:t=P:problem:kreska pseudotaktowa	!	!	!	!	!	!
2F\	.	p(e)c-	2F\	pec-	2c\	no-	pec-	4fny\	-ca-	2a\	pec-
.	.	.	.	.	.	.	.	4f\	-ta	.	.
=69-	=69-	=69-	=69-	=69-	=69-	=69-	=69-	=69-	=69-	=69-	=69-
2B-X\	.	-(ca)-	2B-X\	-ca-	2d\	.	-ca-	(1.f\	mun-	2b-X\	-ca-
!	!	!	!	!	!	!	!	!	!	!LO:TX:t=P:problem:kreska pseudotaktowa	!
2A\	.	-ta	2A\	-ta	2A\	.	-ta	.	.	2cc\	-ta
1G\	.	mun-	1G\	mun-	1B-X\	.	mun-	.	.	1b-X\	mun-
!	!	!	!	!	!	!	!	!LO:TX:t=P:problem:kreska pseudotaktowa	!	!	!
.	.	.	.	.	.	.	.	2e\)	.	.	.
=70-	=70-	=70-	=70-	=70-	=70-	=70-	=70-	=70-	=70-	=70-	=70-
!LO:TX:t=P:problem:kreska pseudotaktowa	!	!	!LO:TX:t=P:problem:kreska pseudotaktowa	!	!LO:TX:t=P:problem:kreska pseudotaktowa	!	!	!LO:TX:t=P:problem:kreska pseudotaktowa	!	!LO:TX:t=P:problem:kreska pseudotaktowa	!
1F\,<	.	-di	1F\	-di	1c\,<	-bis]]	-di	1f\,<	-di	1a\,<	-di
!LO:TX:t=P:problem:nie da się podłożyć tekstu zgodnie ze źródłem w taktch 71-73	!	!	!	!	!	!	!	!	!	!	!
1E-X\	.	Sus-	2.E-X\	Suſ-	2.c\	Suſ-	.	2.f\	Suſ-	2.a\	Sus-
!	!	!	!LO:TX:t=P:problem:kreska pseudotaktowa	!	!	!	!	!	!	!	!
!	!	!	!LO:SIC:v:t=custos D	!	!	!	!	!	!	!	!
.	.	.	4E-\	-ci-	4c\	-ci-	.	4f\	-ci-	4a\	-ci-
!	!	!	!LO:LB:g=original	!	!	!	!	!	!	!	!
=71-	=71-	=71-	=71-	=71-	=71-	=71-	=71-	=71-	=71-	=71-	=71-
2D\	.	-ci-	2D\	-pe	2d,<\	-pe	.	2f,<\	-pe	2b-X,<\	-pe
2BB-X/	.	-pe	4BB-X/	de-	4d\	de-	.	4f\	de-	4b-\	de-
!	!	!	!LO:TX:t=P:problem:kreska pseudotaktowa	!	!LO:TX:t=P:problem:kreska pseudotaktowa	!	!	!LO:TX:t=P:problem:kreska pseudotaktowa	!	!LO:TX:t=P:problem:kreska pseudotaktowa	!
.	.	.	4BB-/	-pre-	4d\	-pre-	.	4f\	-pre-	4b-\	-pre-
2.E-X\	.	depre-	4E-X\	-ca-	4B-X\	-ca-	.	4e-X\	-ca-	4g/	-ca-
.	.	.	4E-\	-ti-	4B-\	-ti-	.	4e-\	-ti-	4g/	-ti-
.	.	.	4E-\	-o-	4c\	-o-	.	4e-\	-o-	4g/	-o-
4C/	.	-cati-	4C/	-nem	4c\	-nem	.	4e-\	-(ne)m	4g/	-nem
=72-	=72-	=72-	=72-	=72-	=72-	=72-	=72-	=72-	=72-	=72-	=72-
!LO:TX:t=P:problem:kreska pseudotaktowa	!	!	!	!	!	!	!	!	!	!	!
1D\	.	-o(ne)m	1D\	no-	1A\	no-	.	1d\	no-	2g/	no-
.	.	.	.	.	.	.	.	.	.	2f#X/	-stram.
2GG/	.	nostram	2GG/	-ſtra(m)	2B-X\	-ſtram	.	2d,<\	-ſtra(m)	2g\	.
*clefC3	*	*	*	*	*	*	*	*	*	*	*
!LO:LB:g=original	!	!	!	!	!	!	!	!	!	!	!
!LO:TX:t=P:problem:kreska pseudotaktowa	!	!	!LO:TX:t=P:problem:kreska pseudotaktowa	!	!LO:TX:t=P:problem:kreska pseudotaktowa	!	!	!LO:TX:t=P:problem:kreska pseudotaktowa	!	!LO:TX:t=P:problem:kreska pseudotaktowa	!
2d\	.	.	2r	.	2r	.	.	2d\	Qui	2r	.
=73-	=73-	=73-	=73-	=73-	=73-	=73-	=73-	=73-	=73-	=73-	=73-
2g\	.	.	00r	.	2r	.	.	1.g\	se-	00r	.
*clefC4	*	*	*	*	*	*	*	*	*	*	*
!LO:TX:t=P:problem:kreska pseudotaktowa	!	!	!	!	!LO:TX:t=P:problem:kreska pseudotaktowa	!	!	!	!	!	!
2G/	.	.	.	.	2G/	Qui	.	.	.	.	.
!LO:TX:t=P:problem:kreska pseudotaktowa	!	!	!	!	!	!	!	!	!	!	!
[<1d\	.	.	.	.	1.d\	se-	.	.	.	.	.
.	.	.	.	.	.	.	.	4f\	-des	.	.
!	!	!	!	!	!	!	!	!LO:TX:t=P:problem:kreska pseudotaktowa	!	!	!
.	.	.	.	.	.	.	.	4f\	ad	.	.
=74-	=74-	=74-	=74-	=74-	=74-	=74-	=74-	=74-	=74-	=74-	=74-
2d\]	.	.	.	.	.	.	.	2eny\	dex-	.	.
2c\	.	.	.	.	4c\	-des	.	4f#X\	-te-	.	.
!	!	!	!	!	!LO:TX:t=P:problem:kreska pseudotaktowa	!	!	!LO:TX:t=P:problem:kreska pseudotaktowa	!	!	!
.	.	.	.	.	4c\	ad	.	4f#\	-ra(m)	.	.
!LO:TX:t=P:problem:kreska pseudotaktowa	!	!	!	!	!LO:LB:g=original	!	!	!	!	!	!
1B-X\	.	.	.	.	2B-X\	dex-	.	1.g\	Pa-	.	.
.	.	.	.	.	4B-\	-te-	.	.	.	.	.
.	.	.	.	.	4B-\	-ram	.	.	.	.	.
*clefF4	*	*	*	*	*	*	*	*	*	*	*
=75-	=75-	=75-	=75-	=75-	=75-	=75-	=75-	=75-	=75-	=75-	=75-
!LO:TX:t=P:problem:nie da się podłożyć tekstu zgodnie ze źródłem	!	!	!	!	!	!	!	!	!	!	!
1D\	.	miſe-	2D\	mi-	1A\	Pa-	.	.	.	2dd\	mi-
!	!	!	!	!	!	!	!	!LO:TX:t=P:problem:kreska pseudotaktowa	!	!	!
.	.	.	2D\	-ſe-	.	.	.	2f#X,<\	-tris	2dd\	-ſe-
!LO:TX:t=P:problem:kreska pseudotaktowa	!	!	!	!	!LO:TX:t=P:problem:kreska pseudotaktowa	!	!	!	!	!LO:TX:t=P:problem:kreska pseudotaktowa	!
1G\	.	-rere	1G\	-re-	1B-X\	-tris	.	2g\	mi-	[<1b-X\	-re-
.	.	.	.	.	.	.	.	2g\	-ſe-	.	.
=76-	=76-	=76-	=76-	=76-	=76-	=76-	=76-	=76-	=76-	=76-	=76-
!	!	!	!LO:TX:t=P:problem:kreska pseudotaktowa	!	!	!	!	!	!	!	!
1C/	.	no-	1C/	-re	1.e-X\	mi-	.	1e-X\	-re-	2b-\]	.
.	.	.	.	.	.	.	.	.	.	2b-\	-re
!LO:TX:t=P:problem:kreska pseudotaktowa	!	!	!	!	!	!	!	!LO:TX:t=P:problem:kreska pseudotaktowa	!	!	!
1F\,<	.	-bis	2F\	mi-	.	.	.	1cny\	-re	1a\	no-
!	!	!	!	!	!LO:TX:t=P:problem:kreska pseudotaktowa	!	!	!	!	!	!
.	.	.	2F\	-ſe-	2e-\	-ſe-	.	.	.	.	.
!	!	!	!	!	!	!	!	!LO:LB:g=original	!	!	!
=77-	=77-	=77-	=77-	=77-	=77-	=77-	=77-	=77-	=77-	=77-	=77-
4BB-X/	.	no-	4BB-X/	-re-	2d\	-re-	.	4d\	mi-	1.b-X\	.
4C/	.	.	4C/	.	.	.	.	4e-X\	-se-	.	.
4D/	.	.	(4D/	-re	2d\	-re	.	4fny\	-re-	.	.
4E-X/	.	.	4Eny/)	.	.	.	.	4g\	-re	.	.
2F\	.	.	1F\	no-	1d\	no-	.	1f\	no-	.	.
!	!	!	!	!	!	!	!	!	!	!LO:TX:t=P:problem:kreska pseudotaktowa	!
!LO:TX:t=P:problem:kreska pseudotaktowa	!	!	!	!	!	!	!	!	!	!LO:SIC:v:t=custos b-	!
2FF/	.	.	.	.	.	.	.	.	.	2a,<\	-bis.
!	!	!	!	!	!	!	!	!	!	!LO:LB:g=original	!
=78-	=78-	=78-	=78-	=78-	=78-	=78-	=78-	=78-	=78-	=78-	=78-
2BB-X/	.	-bis	2BB-X/	-bis.	2d\	-bis.	.	2f\	-bis	2b-X\	Quo-
*clefC1	*	*	*	*	*	*	*	*	*	*	*
!	!	!	!LO:TX:t=P:problem:kreska pseudotaktowa	!	!LO:TX:t=P:problem:kreska pseudotaktowa	!	!	!LO:TX:t=P:problem:kreska pseudotaktowa	!	!	!
2b-X\	.	.	2r	.	2r	.	.	2r	.	4b-\	-ni-
!	!	!	!	!	!	!	!	!	!	!LO:TX:t=P:problem:kreska pseudotaktowa	!
.	.	.	.	.	.	.	.	.	.	4b-\	-am
*clefC3	*	*	*	*	*	*	*	*	*	*	*ij
!	!	!	!LO:TX:t=P:problem:kreska pseudotaktowa	!	!	!	!	!	!	!	!
2f\	.	.	0r	.	1r	.	.	2f\	Quo-	4a\	quo-
.	.	.	.	.	.	.	.	.	.	4a\	-ni-
2f\	.	.	.	.	.	.	.	4f\	-ni-	4a\	-am
!	!	!	!	!	!	!	!	!	!	!LO:TX:t=P:problem:kreska pseudotaktowa	!
.	.	.	.	.	.	.	.	4f,<\	-a(m)	4a\	tu
*clefC4	*	*	*	*	*	*	*	*	*ij	*	*Xij
=79-	=79-	=79-	=79-	=79-	=79-	=79-	=79-	=79-	=79-	=79-	=79-
2B-X\	.	.	.	.	2B-X\	Quo-	.	4d\	quo-	2b-X\	So-
.	.	.	.	.	.	.	.	4d\	-ni-	.	.
2B-\	.	.	.	.	4B-\	-ni-	.	4d,<\	-am	2fny,</	-l(us)
*	*	*	*	*	*	*	*	*	*Xij	*	*
!	!	!	!	!	!LO:TX:t=P:problem:kreska pseudotaktowa	!	!	!	!	!	!
.	.	.	.	.	4B-\	-am	.	4d\	Tu	.	.
*clefF4	*	*	*	*	*	*ij	*	*	*	*	*ij
2F\	.	Quo-	2F\	Quo-	4A\	quo-	.	2c/	so-	2f/	so-
.	.	.	.	.	4A\	-ni-	.	.	.	.	.
!LO:TX:t=P:problem:kreska pseudotaktowa	!	!	!	!	!	!	!	!LO:TX:t=P:problem:kreska pseudotaktowa	!	!LO:TX:t=P:problem:kreska pseudotaktowa	!
!LO:TX:t=P:problem:nie da się podłożyć tekstu zgodnie ze źródłem	!	!	!	!	!	!	!	!	!	!	!
2F\	.	-niam	4F\	-ni-	4A,<\	-am	.	2c/	-lus	2f,</	-lus
*	*	*	*	*	*	*Xij	*	*	*	*	*Xij
.	.	.	4F,<\	-am	4c\	Tu	.	.	.	.	.
=80-	=80-	=80-	=80-	=80-	=80-	=80-	=80-	=80-	=80-	=80-	=80-
*	*	*ij	*	*ij	*	*	*	*	*	*	*
4D/	.	quo-	4D/	quo-	2d\	so-	.	2r	.	1b-X\	San-
4C/	.	-ni-	4C/	-ni-	.	.	.	.	.	.	.
!	!	!	!	!	!LO:TX:t=P:problem:kreska pseudotaktowa	!	!	!	!	!	!
4D,</	.	-am	4D,</	-am	2d\	-l(us)	.	2f\	Tu	.	.
*	*	*Xij	*	*Xij	*	*	*	*	*	*	*
!	!	!	!LO:TX:t=P:problem:kreska pseudotaktowa	!	!	!	!	!	!	!	!
4BB-X/	.	Tu	4BB-X/	Tu	.	.	.	.	.	.	.
*	*	*	*	*	*	*ij	*	*	*	*	*
!LO:TX:t=P:problem:nie da się podłożyć tekstu zgodnie ze źródłem	!	!	!	!	!	!	!	!	!	!	!
2F\	.	Sol(us)	2F\	so-	2cn\	so-	.	2f\	so-	2a\	.
!LO:TX:t=P:problem:kreska pseudotaktowa	!	!	!	!	!	!	!	!LO:TX:t=P:problem:kreska pseudotaktowa	!	!	!
2BB-X/	.	S(an)-	2BB-/	-l(us)	2d,<\	-lus	.	2f\	-lus	2b-\	.
*	*	*	*	*	*	*Xij	*	*	*	*	*
=81-	=81-	=81-	=81-	=81-	=81-	=81-	=81-	=81-	=81-	=81-	=81-
!	!	!	!	!	!	!	!	!	!	!LO:TX:t=P:problem:kreska pseudotaktowa	!
1F\	.	-ct(us)	2F\	San-	2c\	Sanc-	.	2f\	San-	1a\,<	-ctus
!	!	!	!LO:TX:t=P:problem:kreska pseudotaktowa	!	!LO:TX:t=P:problem:kreska pseudotaktowa	!	!	!LO:TX:t=P:problem:kreska pseudotaktowa	!	!	!
.	.	.	2F\	-ctus	2c\	-t(us)	.	2f\	-ct(us)	.	.
*clefC1	*	*	*	*	*	*	*	*	*	*	*
2cc\	.	.	0r	.	0r	.	.	1r	.	2cc\	Quo-
!LO:TX:t=P:problem:kreska pseudotaktowa	!	!	!	!	!	!	!	!	!	!	!
2cc\	.	.	.	.	.	.	.	.	.	4cc\	-ni-
.	.	.	.	.	.	.	.	.	.	4cc,<\	-am
*clefC3	*	*	*	*	*	*	*	*	*	*	*ij
=82-	=82-	=82-	=82-	=82-	=82-	=82-	=82-	=82-	=82-	=82-	=82-
2g\	.	.	.	.	.	.	.	2g\	Quo-	4bn\	quo-
.	.	.	.	.	.	.	.	.	.	4b\	-ni-
2g\	.	.	.	.	.	.	.	4g\	-ni-	4b,<\	-am
!	!	!	!	!	!	!	!	!LO:TX:t=P:problem:kreska pseudotaktowa	!	!LO:TX:t=P:problem:kreska pseudotaktowa	!
*	*	*	*	*	*	*	*	*	*	*	*Xij
.	.	.	.	.	.	.	.	4g\	-am	4b\	Tu
*clefC4	*	*	*	*	*	*	*	*	*ij	*	*
!	!	!	!LO:TX:t=P:problem:kreska pseudotaktowa	!	!	!	!	!	!	!	!
2c\	.	.	1r	.	2c\	Quo-	.	4e-X\	quo-	2cc\	so-
.	.	.	.	.	.	.	.	4e-\	-ni-	.	.
2c\	.	.	.	.	4c\	-ni-	.	4e-,<\	-am	2g,<\	-l(us)
*	*	*	*	*	*	*	*	*	*Xij	*	*
!	!	!	!	!	!	!	!	!LO:TX:t=P:problem:kreska pseudotaktowa	!	!	!
.	.	.	.	.	4c\	-am	.	4e-\	Tu	.	.
*clefF4	*	*	*	*	*	*ij	*	*	*	*	*
!	!	!	!LO:LB:g=original	!	!	!	!	!	!	!	!
=83-	=83-	=83-	=83-	=83-	=83-	=83-	=83-	=83-	=83-	=83-	=83-
2G\	.	Quo-	2G\	Quo-	4Bn\	quo-	.	2d\	so-	2g\	so-
.	.	.	.	.	4B\	-ni-	.	.	.	.	.
!LO:TX:t=P:problem:kreska pseudotaktowa	!	!	!	!	!	!	!	!LO:TX:t=P:problem:kreska pseudotaktowa	!	!LO:TX:t=P:problem:kreska pseudotaktowa	!
!LO:TX:t=P:problem:nie da się podłożyć tekstu zgodnie ze źródłem	!	!	!	!	!	!	!	!	!	!	!
2G\	.	-niam	4G\	-ni-	4B,<\	-am	.	2d\	-lus	2g,<\	-lus
*	*	*	*	*	*	*Xij	*	*	*	*	*
!	!	!	!LO:TX:t=P:problem:kreska pseudotaktowa	!	!LO:TX:t=P:problem:kreska pseudotaktowa	!	!	!	!	!	!
.	.	.	4G\	-am	4d\	Tu	.	.	.	.	.
*	*	*ij	*	*ij	*	*	*	*	*	*	*
!	!	!	!	!	!LO:LB:g=original	!	!	!	!	!	!
4E-X\	.	quo-	4E-X\	quo-	2e-X\	So-	.	2r	.	1cc\	Do-
4D\	.	-ni-	4D\	-ni-	.	.	.	.	.	.	.
!	!	!	!	!	!	!	!	!LO:TX:t=P:problem:kreska pseudotaktowa	!	!	!
4E-,<\	.	-am	4E-,<\	-am	2e-,<\	-lus	.	2g\	Tu	.	.
*	*	*Xij	*	*Xij	*	*	*	*	*	*	*
!LO:TX:t=P:problem:kreska pseudotaktowa	!	!	!LO:TX:t=P:problem:kreska pseudotaktowa	!	!	!	!	!	!	!	!
4C\	.	Tu	4C\	Tu	.	.	.	.	.	.	.
=84-	=84-	=84-	=84-	=84-	=84-	=84-	=84-	=84-	=84-	=84-	=84-
*	*	*	*	*	*	*ij	*	*	*	*	*
!LO:TX:t=P:problem:nie da się podłożyć tekstu zgodnie ze źródłem	!	!	!	!	!	!	!	!	!	!	!
2G\	.	sol(us)	2G\	so-	2d\	so-	.	2g\	so-	2bn\	.
!	!	!	!	!	!LO:TX:t=P:problem:kreska pseudotaktowa	!	!	!	!	!	!
2C/	.	D(omi)n(us)	2C/	-l(us)	2e-X\	-lus	.	2g\	-lus	2cc\	-mi-
*	*	*	*	*	*	*Xij	*	*	*	*	*
!LO:TX:t=P:problem:kreska pseudotaktowa	!	!	!	!	!	!	!	!	!	!LO:TX:t=P:problem:kreska pseudotaktowa	!
1G\	.	.	4G\	Do-	4d\	Do-	.	4g\	Do-	1b\,<	-n(us)
.	.	.	4G\	-mi-	4d\	-mi-	.	4g\	-mi-	.	.
!	!	!	!LO:TX:t=P:problem:kreska pseudotaktowa	!	!	!	!	!LO:TX:t=P:problem:kreska pseudotaktowa	!	!	!
.	.	.	2G\	-n(us)	2d\	-n(us)	.	2g\	-n(us)	.	.
*clefC1	*	*	*	*	*	*	*	*	*	*	*
!	!	!	!	!	!	!	!	!LO:LB:g=original	!	!	!
=85-	=85-	=85-	=85-	=85-	=85-	=85-	=85-	=85-	=85-	=85-	=85-
!	!	!	!	!	!LO:TX:t=P:problem:kreska pseudotaktowa	!	!	!LO:TX:t=P:problem:kreska pseudotaktowa	!	!	!
2dd\	.	.	0r	.	0r	.	.	1r	.	2dd\	Quo-
2dd\	.	.	.	.	.	.	.	.	.	4dd\	-ni-
!	!	!	!	!	!	!	!	!	!	!LO:TX:t=P:problem:kreska pseudotaktowa	!
.	.	.	.	.	.	.	.	.	.	4dd\	-am
*clefC3	*	*	*	*	*	*	*	*	*	*	*
!	!	!	!	!	!	!	!	!	!	!LO:LB:g=original	!
2a\	.	.	.	.	.	.	.	2a\	Quo-	4cc#X\	Quo-
.	.	.	.	.	.	.	.	.	.	4cc#\	-ni-
2a\	.	.	.	.	.	.	.	4a\	-ni-	4cc#,<\	-am
!	!	!	!	!	!	!	!	!LO:TX:t=P:problem:kreska pseudotaktowa	!	!LO:TX:t=P:problem:kreska pseudotaktowa	!
.	.	.	.	.	.	.	.	4a\	-am	4cc#\	Tu
*clefC4	*	*	*	*	*	*	*	*	*ij	*	*
=86-	=86-	=86-	=86-	=86-	=86-	=86-	=86-	=86-	=86-	=86-	=86-
!	!	!	!LO:TX:t=P:problem:kreska pseudotaktowa	!	!	!	!	!	!	!	!
2d\	.	.	1r	.	2d\	Quo-	.	4f\	quo-	2dd\	so-
.	.	.	.	.	.	.	.	4f\	-ni-	.	.
2d\	.	.	.	.	4d\	-ni-	.	4f,<\	-am	2a,<\	-l(us)
*	*	*	*	*	*	*	*	*	*Xij	*	*
.	.	.	.	.	4d,<\	-am	.	4f\	Tu	.	.
*clefF4	*	*	*	*	*	*ij	*	*	*	*	*ij
!LO:TX:t=P:problem:nie da się podłożyć tekstu zgodnie ze źródłem	!	!	!	!	!	!	!	!	!	!	!
2A\	.	Quo-	2A\	Quo-	4c#X\	quo-	.	2eny\	so-	2a\	so-
.	.	.	.	.	4c#\	-ni-	.	.	.	.	.
!	!	!	!	!	!	!	!	!LO:TX:t=P:problem:kreska pseudotaktowa	!	!	!
2A\	.	-niam	4A\	-ni-	4c#,<\	-am	.	2e\	-l(us)	4a,<\	-lus
*	*	*	*	*	*	*Xij	*	*	*	*	*Xij
!	!	!	!	!	!LO:TX:t=P:problem:kreska pseudotaktowa	!	!	!	!	!LO:TX:t=P:problem:kreska pseudotaktowa	!
.	.	.	4A\	-am	4eny\	Tu	.	.	.	4a\	al-
!LO:LB:g=original	!	!	!	!	!	!	!	!	!	!	!
=87-	=87-	=87-	=87-	=87-	=87-	=87-	=87-	=87-	=87-	=87-	=87-
*	*	*ij	*	*ij	*	*	*	*	*	*	*
4F\	.	quo-	4F\	quo-	2f\	so-	.	2r	.	1dd\	-tiſ-
4Eny\	.	-ni-	4Eny\	-ni-	.	.	.	.	.	.	.
!	!	!	!	!	!LO:TX:t=P:problem:kreska pseudotaktowa	!	!	!	!	!	!
4F,<\	.	-am	4F,<\	-am	2f\	-lus	.	2a\	Tu	.	.
*	*	*Xij	*	*Xij	*	*	*	*	*	*	*
!LO:TX:t=P:problem:kreska pseudotaktowa	!	!	!LO:TX:t=P:problem:kreska pseudotaktowa	!	!	!	!	!	!	!	!
4D\	.	Tu	4D\	Tu	.	.	.	.	.	.	.
*	*	*	*	*	*	*ij	*	*	*	*	*
2A\	.	so-	2A\	so-	2e\	so-	.	2a\	so-	2cc#X\	.
!	!	!	!	!	!	!	!	!	!	!LO:TX:t=P:problem:kreska pseudotaktowa	!
2AA/	.	-l(us)	4D/	-l(us)	4f,<\	-lus	.	4a\	-lus	2dd\	-si-
*	*	*	*	*	*	*Xij	*	*	*	*	*
!	!	!	!	!	!	!	!	!LO:TX:t=P:problem:kreska pseudotaktowa	!	!	!
.	.	.	4D/	al-	4f\	al-	.	4a\	al-	.	.
=88-	=88-	=88-	=88-	=88-	=88-	=88-	=88-	=88-	=88-	=88-	=88-
1A\	.	al-	2A\	-tiſ-	2e\	-tiſ-	.	2a\	-tiſ-	1cc#X\,<	-m(us)
.	.	.	4A\	-si-	4e\	-si-	.	4a\	-si-	.	.
!	!	!	!LO:TX:t=P:problem:kreska pseudotaktowa	!	!LO:TX:t=P:problem:kreska pseudotaktowa	!	!	!LO:TX:t=P:problem:kreska pseudotaktowa	!	!	!
.	.	.	4A\	-m(us)	4e\	-m(us)	.	4a\	-m(us)	.	.
!LO:TX:t=P:problem:nie da się podłożyć tekstu zgodnie ze źródłem	!	!	!	!	!	!	!	!	!	!	!
!LO:TX:t=P:problem:kreska pseudotaktowa	!	!	!	!	!	!	!	!	!	!LO:TX:t=P:problem:kreska pseudotaktowa	!
1D\	.	-tiſsi-	1D\	Je-	1f\	Je-	.	2a\	JE-	1dd\	Je-
.	.	.	.	.	.	.	.	2a\	-su	.	.
=89-	=89-	=89-	=89-	=89-	=89-	=89-	=89-	=89-	=89-	=89-	=89-
!	!	!	!LO:TX:t=P:problem:kreska pseudotaktowa	!	!	!	!	!	!	!	!
1C/	.	-m(us)	1C/	-su	1e\,<	-su	.	(1.a\	X-	(1a\,<	-su
1BB-X/	7	Jesu	1BB-X/	X-	1d\	X-	.	.	.	1dd\)	X-
.	6	.	.	.	.	.	.	2g\)	.	.	.
=90-	=90-	=90-	=90-	=90-	=90-	=90-	=90-	=90-	=90-	=90-	=90-
0AA/;	.	Xte	0AA/;	-te	0e\;<	-te	.	0a\;	-te	0cc#X\;	-te!
*clefC1	*	*	*	*	*	*	*	*	*	*	*
=91||	=91||	=91||	=91||	=91||	=91||	=91||	=91||	=91||	=91||	=91||	=91||
*M3/2	*	*	*M3/2	*	*M3/2	*	*	*M3/2	*	*M3/2	*
!LO:TX:b:t=Cun S(an)cto	!	!	!LO:N:vis=00	!	!LO:N:vis=00	!	!	!LO:N:vis=0	!	!	!
2d/	.	.	00.r	.	00.r	.	.	0.r	.	2d/	Cum
2e/	.	.	.	.	.	.	.	.	.	2e/	S(an)-
2f/	.	.	.	.	.	.	.	.	.	2f/	-cto
=92-	=92-	=92-	=92-	=92-	=92-	=92-	=92-	=92-	=92-	=92-	=92-
1g\	.	.	.	.	.	.	.	.	.	1g\	Spi-
2a\	.	.	.	.	.	.	.	.	.	2a\	-ri-
=93-	=93-	=93-	=93-	=93-	=93-	=93-	=93-	=93-	=93-	=93-	=93-
!	!	!	!	!	!	!	!	!LO:TX:t=P:problem:kreska pseudotaktowa	!	!	!
1d/	.	.	.	.	.	.	.	1.r	.	1d/,<	-tu
!	!	!	!	!	!	!	!	!	!	!LO:TX:t=P:problem:kreska pseudotaktowa	!
2d/	.	.	.	.	.	.	.	.	.	2d/	in
*clefC3	*	*	*	*	*	*	*	*	*	*	*
=94-	=94-	=94-	=94-	=94-	=94-	=94-	=94-	=94-	=94-	=94-	=94-
!	!	!	!	!	!	!	!	!	!	!LO:TX:t=P:problem:kreska pseudotaktowa	!
2A/	.	.	.	.	.	.	.	2A/	Cum	[<1.a\	glo-
2B/	.	.	.	.	.	.	.	2B/	San-	.	.
!	!	!	!	!	!	!	!	!LO:TX:t=P:problem:kreska pseudotaktowa	!	!	!
2c#X\	.	.	.	.	.	.	.	2c#X\	-cto	.	.
=95-	=95-	=95-	=95-	=95-	=95-	=95-	=95-	=95-	=95-	=95-	=95-
!	!	!	!LO:N:vis=00	!	!LO:N:vis=0	!	!	!	!	!	!
1d\	.	.	00.r	.	0.r	.	.	1d\	Spi-	1a\]	.
2e\	.	.	.	.	.	.	.	2e\	-ri-	2g\	-ri-
=96-	=96-	=96-	=96-	=96-	=96-	=96-	=96-	=96-	=96-	=96-	=96-
1A/	.	.	.	.	.	.	.	1A/,<	-tu	2g,<\	-a
.	.	.	.	.	.	.	.	.	.	2g\	De-
!	!	!	!	!	!	!	!	!LO:TX:t=P:problem:kreska pseudotaktowa	!	!LO:TX:t=P:problem:kreska pseudotaktowa	!
2A/	.	.	.	.	.	.	.	2A/	in	2g\	-i
*clefC4	*	*	*	*	*	*	*	*	*	*	*
!	!	!	!	!	!	!	!	!	!	!LO:LB:g=original	!
=97-	=97-	=97-	=97-	=97-	=97-	=97-	=97-	=97-	=97-	=97-	=97-
2D/	.	.	.	.	2D/	Cum	.	[1.d\	glo-	1.f/	Pa-
2E/	.	.	.	.	2E/	S(an)-	.	.	.	.	.
!	!	!	!	!	!LO:TX:t=P:problem:kreska pseudotaktowa	!	!	!	!	!	!
2F/	.	.	.	.	2F/	-cto	.	.	.	.	.
=98-	=98-	=98-	=98-	=98-	=98-	=98-	=98-	=98-	=98-	=98-	=98-
1G/	.	.	.	.	1G/	Spi-	.	1d\]	.	1.e/	.
!	!	!	!	!	!LO:TX:t=P:problem:kreska pseudotaktowa	!	!	!	!	!	!
2A\	.	.	.	.	2A\	-ri-	.	2c#X/	-ri-	.	.
!	!	!	!	!	!LO:LB:g=original	!	!	!	!	!	!
=99-	=99-	=99-	=99-	=99-	=99-	=99-	=99-	=99-	=99-	=99-	=99-
!	!	!	!LO:TX:t=P:problem:kreska pseudotaktowa	!	!	!	!	!LO:TX:t=P:problem:kreska pseudotaktowa	!	!	!
1D/	.	.	1.r	.	1D/	-tu	.	1.d\	-a	1.f/	.
2D/	.	.	.	.	2D/	in	.	.	.	.	.
*clefF4	*	*	*	*	*	*	*	*	*	*	*
!LO:LB:g=original	!	!	!LO:LB:g=original	!	!	!	!	!LO:LB:g=original	!	!	!
=100-	=100-	=100-	=100-	=100-	=100-	=100-	=100-	=100-	=100-	=100-	=100-
!	!	!	!	!	!LO:TX:t=P:problem:kreska pseudotaktowa	!	!	!	!	!	!
2AA/	.	Cum	2AA/	Cum	[<1.A\	glo-	.	2c#X\	DE-	1e/,<	-tris
2BB/	.	S(an)-	2BB/	S(an)-	.	.	.	2d\	.	.	.
!LO:TX:t=P:problem:kreska pseudotaktowa	!	!	!LO:TX:t=P:problem:kreska pseudotaktowa	!	!	!	!	!LO:TX:t=P:problem:kreska pseudotaktowa	!	!LO:TX:t=P:problem:kreska pseudotaktowa	!
2C#X/	.	-cto	2C#X/	-cto	.	.	.	2e\	-I	2e/	in
=101-	=101-	=101-	=101-	=101-	=101-	=101-	=101-	=101-	=101-	=101-	=101-
1D\	.	Spi-	1D\	Spi-	1A\]	.	.	1.d\	Pa-	2.f/	glo-
.	.	.	.	.	.	.	.	.	.	4f/	-ri-
2E\	.	-ri-	2E\	-ri-	2G/	-ri-	.	.	.	2g/	-a
=102-	=102-	=102-	=102-	=102-	=102-	=102-	=102-	=102-	=102-	=102-	=102-
!LO:TX:t=P:problem:kreska pseudotaktowa	!	!	!	!	!	!	!	!	!	!	!
1.AA/	.	-tu	1AA/,<	-tu	2G,</	-a	.	1.c#X\	.	1e/	De-
.	.	.	.	.	2G/	De-	.	.	.	.	.
!	!	!	!LO:TX:t=P:problem:kreska pseudotaktowa	!	!LO:TX:t=P:problem:kreska pseudotaktowa	!	!	!	!	!LO:TX:t=P:problem:kreska pseudotaktowa	!
.	.	.	2A\	in	2G/	-i	.	.	.	2e/	-i
=103-	=103-	=103-	=103-	=103-	=103-	=103-	=103-	=103-	=103-	=103-	=103-
2.D\	.	in	2D\	glo-	2F/	Pa-	.	1.d\	.	(2f/	Pa-
.	.	.	4D\	-ri-	2A\	.	.	.	.	2d/)	.
4E\	.	glo-	4E\	-a	.	.	.	.	.	.	.
4F\	.	-(ri)-	4F\	De-	2d\	.	.	.	.	2a,<\	-tris
!LO:TX:t=P:problem:kreska pseudotaktowa	!	!	!LO:TX:t=P:problem:kreska pseudotaktowa	!	!	!	!	!	!	!	!
4D\	.	-a	4D\	-i	.	.	.	.	.	.	.
=104-	=104-	=104-	=104-	=104-	=104-	=104-	=104-	=104-	=104-	=104-	=104-
!	!	!	!	!	!LO:TX:t=P:problem:♯above	!	!	!	!	!	!
1A\	.	Dei	1A\	Pa-	1c#X\	.	.	1e\,<	-tris	1a\	a-
*clefC3	*	*	*	*	*	*	*	*	*	*	*
!	!	!	!LO:TX:t=P:problem:kreska pseudotaktowa	!	!LO:TX:t=P:problem:kreska pseudotaktowa	!	!	!LO:TX:t=P:problem:kreska pseudotaktowa	!	!LO:TX:t=P:problem:kreska pseudotaktowa	!
2a\	.	.	2AA/	-tris	2c#\	-tris	.	2a\	in	2a\	-men
=105-	=105-	=105-	=105-	=105-	=105-	=105-	=105-	=105-	=105-	=105-	=105-
!	!	!	!	!	!	!	!	!	!	!LO:TX:t=P:problem:kreska pseudotaktowa	!
!	!	!	!	!	!	!	!	!	!	!LO:N:vis=0	!
2f\	.	.	1.r	.	2r	.	.	2f\	glo-	0.r	.
4d\	.	.	.	.	2r	.	.	4d\	.	.	.
4e\	.	.	.	.	.	.	.	4e\	.	.	.
*clefC4	*	*	*	*	*	*	*	*	*	*	*
2d\	.	.	.	.	2d\	in	.	4f\	-ri-	.	.
!	!	!	!	!	!	!	!	!LO:TX:t=P:problem:kreska pseudotaktowa	!	!	!
.	.	.	.	.	.	.	.	4d\	-a	.	.
=106-	=106-	=106-	=106-	=106-	=106-	=106-	=106-	=106-	=106-	=106-	=106-
!	!	!	!	!	!	!	!	!LO:TX:t=P:problem:kreska pseudotaktowa	!	!	!
2Bn\	.	.	2r	.	2Bn\	glo-	.	[<1.g\	De-	.	.
4G/	.	.	2r	.	4G/	-ri-	.	.	.	.	.
4A\	.	.	.	.	4A/	-a	.	.	.	.	.
*clefF4	*	*	*	*	*	*	*	*	*	*	*
!LO:TX:t=P:problem:kreska pseudotaktowa	!	!	!LO:TX:t=P:problem:kreska pseudotaktowa	!	!	!	!	!	!	!	!
2G\	.	in	2G\	in	4B/	De-	.	.	.	.	.
!	!	!	!	!	!LO:TX:t=P:problem:kreska pseudotaktowa	!	!	!	!	!	!
.	.	.	.	.	4G/	-i	.	.	.	.	.
=107-	=107-	=107-	=107-	=107-	=107-	=107-	=107-	=107-	=107-	=107-	=107-
2E\	.	glo(ri)a	2E\	glo-	[<1.cny\	Pa-	.	1.g\]	-i	2r	.
4Cny/	.	.	4Cny/	-ri-	.	.	.	.	.	2r	.
4D/	.	.	4D/	-a	.	.	.	.	.	.	.
!	!	!	!	!	!	!	!	!	!	!LO:TX:t=P:problem:kreska pseudotaktowa	!
4E/	.	De-	4E/	De-	.	.	.	.	.	2cc\	in
!LO:TX:t=P:problem:kreska pseudotaktowa	!	!	!LO:TX:t=P:problem:kreska pseudotaktowa	!	!	!	!	!	!	!	!
4C/	.	-i	4C/	-i	.	.	.	.	.	.	.
=108-	=108-	=108-	=108-	=108-	=108-	=108-	=108-	=108-	=108-	=108-	=108-
1.F\	.	Pa-	1.F\	Pa-	1.c\]	.	.	[1.fn\	Pa-	2a\	glo-
.	.	.	.	.	.	.	.	.	.	4f/	-ri-
.	.	.	.	.	.	.	.	.	.	4g/	-a
.	.	.	.	.	.	.	.	.	.	4a/	De-
!	!	!	!	!	!	!	!	!	!	!LO:TX:t=P:problem:kreska pseudotaktowa	!
.	.	.	.	.	.	.	.	.	.	4f/	-i
=109-	=109-	=109-	=109-	=109-	=109-	=109-	=109-	=109-	=109-	=109-	=109-
1.G\	.	.	1.G\	.	2B-X\	.	.	2f\]	.	4b-X\	Pa-
.	.	.	.	.	.	.	.	.	.	4a\	.
.	.	.	.	.	2c\	.	.	2e\	.	2g\	-tris
!	!	!	!	!	!	!	!	!LO:TX:t=P:problem:kreska pseudotaktowa	!	!LO:TX:t=P:problem:kreska pseudotaktowa	!
.	.	.	.	.	2d\	.	.	2d\	.	2f/	.
=110-	=110-	=110-	=110-	=110-	=110-	=110-	=110-	=110-	=110-	=110-	=110-
!	!	!	!	!	!LO:TX:a:t=3	!	!	!	!	!	!
!	!	!	!	!	!LO:TX:t=P:problem:kreska pseudotaktowa	!	!	!	!	!	!
1A\	.	.	1A\	.	0.A\	-tris	.	1c#X\	.	1e/	a-
!LO:TX:t=P:problem:kreska pseudotaktowa	!	!	!LO:TX:t=P:problem:kreska pseudotaktowa	!	!	!	!	!	!	!	!
2D/	.	-tris	2D\	-tris	.	.	.	2d\	-tris	2f/	.
!LO:LB:g=original	!	!	!	!	!	!	!	!	!	!	!
=111-	=111-	=111-	=111-	=111-	=111-	=111-	=111-	=111-	=111-	=111-	=111-
!LO:TX:t=P:problem:kreska pseudotaktowa	!	!	!	!	!	!	!	!	!	!	!
1.AA/	.	a-	1.AA/	a-	.	.	.	1c#X\	a-	1e/,<	-men
!	!	!	!	!	!	!	!	!LO:TX:t=P:problem:kreska pseudotaktowa	!	!LO:TX:t=P:problem:kreska pseudotaktowa	!
.	.	.	.	.	.	.	.	2c#,</	-men	2a\	in
!	!	!	!	!	!	!	!	!	!	!LO:LB:g=original	!
=112-	=112-	=112-	=112-	=112-	=112-	=112-	=112-	=112-	=112-	=112-	=112-
!LO:TX:t=P:problem:kreska pseudotaktowa	!	!	!	!	!	!	!	!	!	!	!
1.A\	.	.	1.A\	.	1.ryy	.	.	2r	.	2f/	glo-
.	.	.	.	.	.	.	.	2r	.	4d/	-ri-
.	.	.	.	.	.	.	.	.	.	4e/	-a
.	.	.	.	.	.	.	.	2d\	in	4f/	De-
!	!	!	!	!	!	!	!	!	!	!LO:TX:t=P:problem:kreska pseudotaktowa	!
.	.	.	.	.	.	.	.	.	.	4d/	-i
=113-	=113-	=113-	=113-	=113-	=113-	=113-	=113-	=113-	=113-	=113-	=113-
!LO:TX:t=P:problem:kreska pseudotaktowa	!	!	!LO:TX:t=P:problem:kreska pseudotaktowa	!	!	!	!	!	!	!	!
1.AA/	.	.	1.AA/	.	2r	.	.	2c#X/	glo-	1.a\	Pa-
.	.	.	.	.	2r	.	.	4A/	-ri-	.	.
.	.	.	.	.	.	.	.	4B/	-a	.	.
.	.	.	.	.	2A/	in	.	4c#X/	De-	.	.
.	.	.	.	.	.	.	.	4A/	-i	.	.
!	!	!	!LO:LB:g=original	!	!	!	!	!	!	!	!
=114-	=114-	=114-	=114-	=114-	=114-	=114-	=114-	=114-	=114-	=114-	=114-
!LO:TX:t=P:problem:kreska pseudotaktowa	!	!	!	!	!	!	!	!	!	!	!
1.A\	.	.	1.A\	.	2F/	glo-	.	1d\	Pa-	1a\	-tris
.	.	.	.	.	4D/	-ri-	.	.	.	.	.
.	.	.	.	.	4E/	-a	.	.	.	.	.
!	!	!	!	!	!	!	!	!LO:TX:t=P:problem:kreska pseudotaktowa	!	!LO:TX:t=P:problem:kreska pseudotaktowa	!
.	.	.	.	.	4F/	De-	.	2d\	-tris	2f/	.
.	.	.	.	.	4D/	-i	.	.	.	.	.
=115-	=115-	=115-	=115-	=115-	=115-	=115-	=115-	=115-	=115-	=115-	=115-
!LO:TX:t=P:problem:kreska pseudotaktowa	!	!	!	!	!	!	!	!	!	!	!
1.AA/	.	.	1.AA/	.	1A\	Pa-	.	1c#X\	a-	1e/	a-
!	!	!	!	!	!LO:TX:t=P:problem:kreska pseudotaktowa	!	!	!	!	!	!
.	.	.	.	.	2A\	-tris	.	1d\	.	2f/	.
=116-	=116-	=116-	=116-	=116-	=116-	=116-	=116-	=116-	=116-	=116-	=116-
!LO:TX:t=P:problem:kreska pseudotaktowa	!	!	!	!	!	!	!	!	!	!	!
1.A\	.	.	1.A\	.	1.A\	a-	.	.	.	1.e/	.
.	.	.	.	.	.	.	.	2d\	.	.	.
!	!	!	!	!	!	!	!	!LO:TX:t=P:problem:♯above	!	!	!
.	.	.	.	.	.	.	.	2c#X\	.	.	.
=117-	=117-	=117-	=117-	=117-	=117-	=117-	=117-	=117-	=117-	=117-	=117-
!LO:N:vis=0	!	!	!LO:N:vis=0	!	!LO:N:vis=0	!	!	!LO:N:vis=0	!	!LO:N:vis=0.	!
1.D\	.	-men	1.D\;	-men.	1.A\;	-men.	.	1.d\	-men.	1.f#X/;	-men.
==	==	==	==	==	==	==	==	==	==	==	==
*-	*-	*-	*-	*-	*-	*-	*-	*-	*-	*-	*-
!!!system-decoration: [(s1,s2,s3,s4,s5)]
!!!RDF**kern: > = above
!!!RDF**kern: < = below
!!!RDF**kern: | = vertical stroke
!!!EED: Andrzej Borzym
!!!EST: 2021-08-07
!!!AIN: 1 alto 2 empty 1 tenor 1 vox
!!!ENC: Andrzej Gręziak
!!!END: 2021-07-16
